; HEADER_BLOCK_START
; generated by OrcaSlicer 1.6.3 on 2023-06-12 at 22:32:40
; total layer number: 7
; HEADER_BLOCK_END

; THUMBNAIL_BLOCK_START
; THUMBNAIL_BLOCK_END

; external perimeters extrusion width = 0.60mm
; perimeters extrusion width = 0.62mm
; infill extrusion width = 0.62mm
; solid infill extrusion width = 0.48mm
; top infill extrusion width = 0.48mm
; first layer extrusion width = 0.70mm

; external perimeters extrusion width = 0.60mm
; perimeters extrusion width = 0.62mm
; infill extrusion width = 0.62mm
; solid infill extrusion width = 0.48mm
; top infill extrusion width = 0.48mm
; first layer extrusion width = 0.70mm

; external perimeters extrusion width = 0.60mm
; perimeters extrusion width = 0.62mm
; infill extrusion width = 0.62mm
; solid infill extrusion width = 0.48mm
; top infill extrusion width = 0.48mm
; first layer extrusion width = 0.70mm

; external perimeters extrusion width = 0.60mm
; perimeters extrusion width = 0.62mm
; infill extrusion width = 0.62mm
; solid infill extrusion width = 0.48mm
; top infill extrusion width = 0.48mm
; first layer extrusion width = 0.70mm

; external perimeters extrusion width = 0.60mm
; perimeters extrusion width = 0.62mm
; infill extrusion width = 0.62mm
; solid infill extrusion width = 0.48mm
; top infill extrusion width = 0.48mm
; first layer extrusion width = 0.70mm

; external perimeters extrusion width = 0.60mm
; perimeters extrusion width = 0.62mm
; infill extrusion width = 0.62mm
; solid infill extrusion width = 0.48mm
; top infill extrusion width = 0.48mm
; first layer extrusion width = 0.70mm

; external perimeters extrusion width = 0.60mm
; perimeters extrusion width = 0.62mm
; infill extrusion width = 0.62mm
; solid infill extrusion width = 0.48mm
; top infill extrusion width = 0.48mm
; first layer extrusion width = 0.70mm

; external perimeters extrusion width = 0.60mm
; perimeters extrusion width = 0.62mm
; infill extrusion width = 0.62mm
; solid infill extrusion width = 0.48mm
; top infill extrusion width = 0.48mm
; first layer extrusion width = 0.70mm

; external perimeters extrusion width = 0.60mm
; perimeters extrusion width = 0.62mm
; infill extrusion width = 0.62mm
; solid infill extrusion width = 0.48mm
; top infill extrusion width = 0.48mm
; first layer extrusion width = 0.70mm

; EXECUTABLE_BLOCK_START
EXCLUDE_OBJECT_DEFINE NAME=flowrate_0_id_0_copy_0 CENTER=117.5,117.5 POLYGON=[[97.5,102.5],[137.5,102.5],[137.5,122.5],[127.5,132.5],[107.5,132.5],[97.5,122.5],[97.5,102.5]]
EXCLUDE_OBJECT_DEFINE NAME=flowrate_10_id_1_copy_0 CENTER=159.5,149.5 POLYGON=[[139.5,134.5],[179.5,134.5],[179.5,154.5],[169.5,164.5],[149.5,164.5],[139.5,154.5],[139.5,134.5]]
EXCLUDE_OBJECT_DEFINE NAME=flowrate_15_id_2_copy_0 CENTER=117.5,149.5 POLYGON=[[97.5,134.5],[137.5,134.5],[137.5,154.5],[127.5,164.5],[107.5,164.5],[97.5,154.5],[97.5,134.5]]
EXCLUDE_OBJECT_DEFINE NAME=flowrate_20_id_3_copy_0 CENTER=75.5,149.5 POLYGON=[[55.5,134.5],[95.5,134.5],[95.5,154.5],[85.5,164.5],[65.5,164.5],[55.5,154.5],[55.5,134.5]]
EXCLUDE_OBJECT_DEFINE NAME=flowrate_5_id_4_copy_0 CENTER=75.5,117.5 POLYGON=[[55.5,102.5],[95.5,102.5],[95.5,122.5],[85.5,132.5],[65.5,132.5],[55.5,122.5],[55.5,102.5]]
EXCLUDE_OBJECT_DEFINE NAME=flowrate_m10_id_5_copy_0 CENTER=159.5,85.5 POLYGON=[[139.5,70.5],[179.5,70.5],[179.5,90.5],[169.5,100.5],[149.5,100.5],[139.5,90.5],[139.5,70.5]]
EXCLUDE_OBJECT_DEFINE NAME=flowrate_m15_id_6_copy_0 CENTER=117.5,85.5 POLYGON=[[97.5,70.5],[137.5,70.5],[137.5,90.5],[127.5,100.5],[107.5,100.5],[97.5,90.5],[97.5,70.5]]
EXCLUDE_OBJECT_DEFINE NAME=flowrate_m20_id_7_copy_0 CENTER=75.5,85.5 POLYGON=[[55.5,70.5],[95.5,70.5],[95.5,90.5],[85.5,100.5],[65.5,100.5],[55.5,90.5],[55.5,70.5]]
EXCLUDE_OBJECT_DEFINE NAME=flowrate_m5_id_8_copy_0 CENTER=159.5,117.5 POLYGON=[[139.5,102.5],[179.5,102.5],[179.5,122.5],[169.5,132.5],[149.5,132.5],[139.5,122.5],[139.5,102.5]]
M73 P0 R55
;TYPE:Custom
G90
G21
M83 ; use relative distances for extrusion
; filament start gcode
M106 S0
;LAYER_CHANGE
;Z:0.2
;HEIGHT:0.2
;BEFORE_LAYER_CHANGE
;0.2
G92 E0

G1 E-.4 F2100
;AFTER_LAYER_CHANGE
;0.2
M204 S500
; printing object flowrate_m20 id:7 copy 0
EXCLUDE_OBJECT_START NAME=flowrate_m20_id_7_copy_0
G1 X65.719 Y90.216 F21000
G1 Z.4
G1 Z.2
G1 E.4 F2100
;TYPE:Outer wall
;WIDTH:0.699999
G1 F1500
G1 X65.521 Y90.15 E.00908
G1 X55.85 Y90.15 E.42273
G1 X55.85 Y70.85 E.84359
G1 X76.332 Y70.85 E.89523
G1 X95.15 Y70.85 E.82254
G1 X95.15 Y90.15 E.84359
G1 X85.5 Y90.15 E.42179
G1 X85.398 Y90.16 E.00449
G1 X85.216 Y90.281 E.00956
G1 X85.15 Y90.479 E.00908
G1 X85.15 Y100.15 E.42273
G1 X65.85 Y100.15 E.84359
G1 X65.85 Y90.5 E.42179
G1 X65.836 Y90.384 E.0051
G1 X65.753 Y90.265 E.00636
G1 X65.721 Y90.174
G1 E-.4 F2100
G1 X72.241 Y86.206 Z.6 F21000
G1 X94.953 Y72.383 Z.6
G1 Z.2
G1 E.4 F2100
;TYPE:Bottom surface
;WIDTH:0.703756
G1 F2269.852
G1 X93.912 Y71.343 E.06469
G1 X92.978 Y71.343 E.04108
G1 X94.657 Y73.022 E.1044
G1 X94.657 Y73.957 E.04108
G1 X92.043 Y71.343 E.1625
G1 X91.109 Y71.343 E.04108
G1 X94.657 Y74.891 E.2206
G1 X94.657 Y75.826 E.04108
G1 X90.174 Y71.343 E.2787
G1 X89.24 Y71.343 E.04108
G1 X94.657 Y76.76 E.3368
G1 X94.657 Y77.695 E.04108
G1 X88.305 Y71.343 E.3949
G1 X87.37 Y71.343 E.04108
G1 X94.657 Y78.63 E.453
M73 P0 R54
G1 X94.657 Y79.564 E.04108
G1 X86.436 Y71.343 E.5111
G1 X85.501 Y71.343 E.04108
G1 X94.657 Y80.499 E.5692
G1 X94.657 Y81.433 E.04108
G1 X84.567 Y71.343 E.6273
G1 X83.632 Y71.343 E.04108
G1 X94.657 Y82.368 E.6854
G1 X94.657 Y83.302 E.04108
G1 X82.698 Y71.343 E.7435
G1 X81.763 Y71.343 E.04108
G1 X94.657 Y84.237 E.8016
G1 X94.657 Y85.172 E.04108
G1 X80.828 Y71.343 E.8597
G1 X79.894 Y71.343 E.04108
G1 X94.657 Y86.106 E.91779
G1 X94.657 Y87.041 E.04108
G1 X78.959 Y71.343 E.97589
G1 X78.025 Y71.343 E.04108
G1 X94.657 Y87.975 E1.03399
G1 X94.657 Y88.91 E.04108
G1 X77.09 Y71.343 E1.09209
G1 X76.156 Y71.343 E.04108
G1 X94.47 Y89.657 E1.13856
G1 X93.536 Y89.657 E.04108
G1 X75.221 Y71.343 E1.13856
G1 X74.287 Y71.343 E.04108
G1 X92.601 Y89.657 E1.13856
G1 X91.666 Y89.657 E.04108
G1 X73.352 Y71.343 E1.13856
G1 X72.417 Y71.343 E.04108
G1 X90.732 Y89.657 E1.13856
G1 X89.797 Y89.657 E.04108
G1 X71.483 Y71.343 E1.13856
G1 X70.548 Y71.343 E.04108
G1 X88.863 Y89.657 E1.13856
G1 X87.928 Y89.657 E.04108
G1 X69.614 Y71.343 E1.13856
G1 X68.679 Y71.343 E.04108
G1 X86.994 Y89.657 E1.13856
G1 X86.059 Y89.657 E.04108
G1 X67.745 Y71.343 E1.13856
G1 X66.81 Y71.343 E.04108
G1 X85.182 Y89.715 E1.14214
G1 X84.9 Y89.894 E.01468
G2 X84.713 Y90.181 I.576 J.579 E.01516
G1 X65.875 Y71.343 E1.17109
G1 X64.941 Y71.343 E.04108
G1 X84.657 Y91.059 E1.22571
G1 X84.657 Y91.994 E.04108
G1 X64.006 Y71.343 E1.28381
G1 X63.072 Y71.343 E.04108
G1 X84.657 Y92.928 E1.34191
G1 X84.657 Y93.863 E.04108
G1 X62.137 Y71.343 E1.40001
G1 X61.203 Y71.343 E.04108
G1 X84.657 Y94.797 E1.45811
G1 X84.657 Y95.732 E.04108
G1 X60.268 Y71.343 E1.51621
G1 X59.334 Y71.343 E.04108
G1 X84.657 Y96.666 E1.57431
G1 X84.657 Y97.601 E.04108
G1 X58.399 Y71.343 E1.63241
G1 X57.464 Y71.343 E.04108
G1 X84.657 Y98.536 E1.69051
M73 P1 R54
G1 X84.657 Y99.47 E.04108
G1 X56.53 Y71.343 E1.7486
G1 X56.343 Y71.343 E.00822
G1 X56.343 Y72.09 E.03286
G1 X83.91 Y99.657 E1.71376
G1 X82.975 Y99.657 E.04108
G1 X56.343 Y73.025 E1.65566
G1 X56.343 Y73.959 E.04108
G1 X82.041 Y99.657 E1.59756
G1 X81.106 Y99.657 E.04108
G1 X56.343 Y74.894 E1.53946
G1 X56.343 Y75.829 E.04108
G1 X80.171 Y99.657 E1.48136
G1 X79.237 Y99.657 E.04108
G1 X56.343 Y76.763 E1.42326
G1 X56.343 Y77.698 E.04108
G1 X78.302 Y99.657 E1.36516
G1 X77.368 Y99.657 E.04108
G1 X56.343 Y78.632 E1.30707
G1 X56.343 Y79.567 E.04108
G1 X76.433 Y99.657 E1.24897
G1 X75.499 Y99.657 E.04108
G1 X56.343 Y80.501 E1.19087
G1 X56.343 Y81.436 E.04108
G1 X64.564 Y89.657 E.51109
G1 X63.629 Y89.657 E.04108
G1 X56.343 Y82.371 E.45299
G1 X56.343 Y83.305 E.04108
G1 X62.695 Y89.657 E.39489
G1 X61.76 Y89.657 E.04108
G1 X56.343 Y84.24 E.3368
G1 X56.343 Y85.174 E.04108
G1 X60.826 Y89.657 E.2787
G1 X59.891 Y89.657 E.04108
G1 X56.343 Y86.109 E.2206
G1 X56.343 Y87.043 E.04108
G1 X58.957 Y89.657 E.1625
G1 X58.022 Y89.657 E.04108
G1 X56.343 Y87.978 E.1044
G1 X56.343 Y88.912 E.04108
G1 X57.383 Y89.953 E.06468
G1 E-.28 F2100
;WIPE_START
G1 F2269.852
G1 X56.343 Y88.912 E-.08387
G1 X56.343 Y88.384 E-.03013
;WIPE_END
G1 E-.006 F2100
G1 X56.486 Y88.424 Z.6 F21000
G1 X66.486 Y89.514
G1 X66.486 Y91.14
G1 X66.047 Y91.14
G1 Z.2
G1 E.4 F2100
G1 F2269.852
G1 X74.564 Y99.657 E.52948
G1 X73.629 Y99.657 E.04108
G1 X66.343 Y92.371 E.45299
G1 X66.343 Y93.305 E.04108
G1 X72.695 Y99.657 E.39489
G1 X71.76 Y99.657 E.04108
G1 X66.343 Y94.24 E.3368
G1 X66.343 Y95.174 E.04108
G1 X70.826 Y99.657 E.2787
G1 X69.891 Y99.657 E.04108
G1 X66.343 Y96.109 E.2206
G1 X66.343 Y97.043 E.04108
G1 X68.957 Y99.657 E.1625
G1 X68.022 Y99.657 E.04108
G1 X66.343 Y97.978 E.1044
G1 X66.343 Y98.912 E.04108
G1 X67.383 Y99.953 E.06468
; stop printing object flowrate_m20 id:7 copy 0
EXCLUDE_OBJECT_END NAME=flowrate_m20_id_7_copy_0
; printing object flowrate_5 id:4 copy 0
EXCLUDE_OBJECT_START NAME=flowrate_5_id_4_copy_0
G1 E-.28 F2100
;WIPE_START
G1 F2269.852
G1 X66.343 Y98.912 E-.08387
G1 X66.343 Y98.384 E-.03013
;WIPE_END
G1 E-.006 F2100
G1 X71.073 Y104.374 Z.6 F21000
G1 X85.216 Y122.281 Z.6
G1 Z.2
G1 E.4 F2100
;TYPE:Outer wall
;WIDTH:0.699999
G1 F1500
G1 X85.15 Y122.479 E.01192
G1 X85.15 Y132.15 E.55483
G1 X65.85 Y132.15 E1.10721
G1 X65.85 Y122.5 E.5536
G1 X65.794 Y122.295 E.01221
G1 X65.628 Y122.168 E.01198
G1 X65.521 Y122.15 E.0062
G1 X55.85 Y122.15 E.55483
G1 X55.85 Y102.85 E1.10721
G1 X95.15 Y102.85 E2.25457
G1 X95.15 Y122.15 E1.10721
G1 X85.5 Y122.15 E.5536
G1 X85.398 Y122.16 E.0059
G1 X85.266 Y122.248 E.0091
G1 X85.174 Y122.279
G1 E-.4 F2100
G1 X88.834 Y115.581 Z.6 F21000
G1 X94.953 Y104.383 Z.6
G1 Z.2
G1 E.4 F2100
;TYPE:Bottom surface
;WIDTH:0.703756
G1 F1729.411
G1 X93.912 Y103.343 E.0849
G1 X92.978 Y103.343 E.05392
G1 X94.657 Y105.022 E.13703
G1 X94.657 Y105.957 E.05392
G1 X92.043 Y103.343 E.21329
G1 X91.109 Y103.343 E.05392
G1 X94.657 Y106.891 E.28954
G1 X94.657 Y107.826 E.05392
G1 X90.174 Y103.343 E.3658
G1 X89.24 Y103.343 E.05392
G1 X94.657 Y108.76 E.44205
G1 X94.657 Y109.695 E.05392
G1 X88.305 Y103.343 E.51831
G1 X87.37 Y103.343 E.05392
G1 X94.657 Y110.63 E.59456
G1 X94.657 Y111.564 E.05392
G1 X86.436 Y103.343 E.67082
G1 X85.501 Y103.343 E.05392
G1 X94.657 Y112.499 E.74707
G1 X94.657 Y113.433 E.05392
G1 X84.567 Y103.343 E.82333
G1 X83.632 Y103.343 E.05392
G1 X94.657 Y114.368 E.89958
G1 X94.657 Y115.302 E.05392
G1 X82.698 Y103.343 E.97584
G1 X81.763 Y103.343 E.05392
G1 X94.657 Y116.237 E1.05209
G1 X94.657 Y117.172 E.05392
G1 X80.828 Y103.343 E1.12835
G1 X79.894 Y103.343 E.05392
G1 X94.657 Y118.106 E1.20461
G1 X94.657 Y119.041 E.05392
G1 X78.959 Y103.343 E1.28086
G1 X78.025 Y103.343 E.05392
G1 X94.657 Y119.975 E1.35712
G1 X94.657 Y120.91 E.05392
G1 X77.09 Y103.343 E1.43337
M73 P2 R54
G1 X76.156 Y103.343 E.05392
G1 X94.47 Y121.657 E1.49436
G1 X93.536 Y121.657 E.05392
G1 X75.221 Y103.343 E1.49436
G1 X74.287 Y103.343 E.05392
G1 X92.601 Y121.657 E1.49436
M73 P2 R53
G1 X91.666 Y121.657 E.05392
G1 X73.352 Y103.343 E1.49436
G1 X72.417 Y103.343 E.05392
G1 X90.732 Y121.657 E1.49436
G1 X89.797 Y121.657 E.05392
G1 X71.483 Y103.343 E1.49436
G1 X70.548 Y103.343 E.05392
G1 X88.863 Y121.657 E1.49436
G1 X87.928 Y121.657 E.05392
G1 X69.614 Y103.343 E1.49436
G1 X68.679 Y103.343 E.05392
G1 X86.994 Y121.657 E1.49436
G1 X86.059 Y121.657 E.05392
G1 X67.745 Y103.343 E1.49436
G1 X66.81 Y103.343 E.05392
G1 X85.182 Y121.715 E1.49906
G1 X84.9 Y121.894 E.01927
G2 X84.713 Y122.181 I.576 J.579 E.0199
G1 X65.875 Y103.343 E1.53706
G1 X64.941 Y103.343 E.05392
G1 X84.657 Y123.059 E1.60875
G1 X84.657 Y123.994 E.05392
G1 X64.006 Y103.343 E1.685
G1 X63.072 Y103.343 E.05392
G1 X84.657 Y124.928 E1.76126
G1 X84.657 Y125.863 E.05392
G1 X62.137 Y103.343 E1.83751
G1 X61.203 Y103.343 E.05392
G1 X84.657 Y126.797 E1.91377
G1 X84.657 Y127.732 E.05392
G1 X60.268 Y103.343 E1.99002
G1 X59.334 Y103.343 E.05392
G1 X84.657 Y128.666 E2.06628
G1 X84.657 Y129.601 E.05392
G1 X58.399 Y103.343 E2.14253
G1 X57.464 Y103.343 E.05392
G1 X84.657 Y130.536 E2.21879
G1 X84.657 Y131.47 E.05392
G1 X56.53 Y103.343 E2.29504
G1 X56.343 Y103.343 E.01079
G1 X56.343 Y104.09 E.04313
G1 X83.91 Y131.657 E2.24931
G1 X82.975 Y131.657 E.05392
G1 X56.343 Y105.025 E2.17306
G1 X56.343 Y105.959 E.05392
G1 X82.041 Y131.657 E2.0968
G1 X81.106 Y131.657 E.05392
G1 X56.343 Y106.894 E2.02055
G1 X56.343 Y107.829 E.05392
G1 X80.171 Y131.657 E1.94429
G1 X79.237 Y131.657 E.05392
G1 X56.343 Y108.763 E1.86803
G1 X56.343 Y109.698 E.05392
G1 X78.302 Y131.657 E1.79178
M73 P3 R53
G1 X77.368 Y131.657 E.05392
G1 X56.343 Y110.632 E1.71552
G1 X56.343 Y111.567 E.05392
G1 X76.433 Y131.657 E1.63927
G1 X75.499 Y131.657 E.05392
G1 X56.343 Y112.501 E1.56301
G1 X56.343 Y113.436 E.05392
G1 X64.564 Y121.657 E.67081
G1 X63.629 Y121.657 E.05392
G1 X56.343 Y114.371 E.59455
G1 X56.343 Y115.305 E.05392
G1 X62.695 Y121.657 E.5183
G1 X61.76 Y121.657 E.05392
G1 X56.343 Y116.24 E.44204
G1 X56.343 Y117.174 E.05392
G1 X60.826 Y121.657 E.36579
G1 X59.891 Y121.657 E.05392
G1 X56.343 Y118.109 E.28953
G1 X56.343 Y119.043 E.05392
G1 X58.957 Y121.657 E.21328
G1 X58.022 Y121.657 E.05392
G1 X56.343 Y119.978 E.13702
G1 X56.343 Y120.912 E.05392
G1 X57.383 Y121.953 E.08489
G1 E-.28 F2100
;WIPE_START
G1 F1729.411
G1 X56.343 Y120.912 E-.08387
G1 X56.343 Y120.384 E-.03013
;WIPE_END
G1 E-.006 F2100
G1 X56.486 Y120.424 Z.6 F21000
G1 X66.486 Y121.514
G1 X66.486 Y123.14
G1 X66.047 Y123.14
G1 Z.2
G1 E.4 F2100
G1 F1729.411
G1 X74.564 Y131.657 E.69494
G1 X73.629 Y131.657 E.05392
G1 X66.343 Y124.371 E.59455
G1 X66.343 Y125.305 E.05392
G1 X72.695 Y131.657 E.5183
G1 X71.76 Y131.657 E.05392
G1 X66.343 Y126.24 E.44204
G1 X66.343 Y127.174 E.05392
G1 X70.826 Y131.657 E.36579
G1 X69.891 Y131.657 E.05392
G1 X66.343 Y128.109 E.28953
G1 X66.343 Y129.043 E.05392
G1 X68.957 Y131.657 E.21328
G1 X68.022 Y131.657 E.05392
G1 X66.343 Y129.978 E.13702
G1 X66.343 Y130.912 E.05392
G1 X67.383 Y131.953 E.08489
; stop printing object flowrate_5 id:4 copy 0
EXCLUDE_OBJECT_END NAME=flowrate_5_id_4_copy_0
; printing object flowrate_20 id:3 copy 0
EXCLUDE_OBJECT_START NAME=flowrate_20_id_3_copy_0
G1 E-.28 F2100
;WIPE_START
G1 F1729.411
G1 X66.343 Y130.912 E-.08387
G1 X66.343 Y130.384 E-.03013
;WIPE_END
G1 E-.006 F2100
G1 X66.143 Y138.014 Z.6 F21000
G1 X65.719 Y154.216 Z.6
G1 Z.2
G1 E.4 F2100
;TYPE:Outer wall
;WIDTH:0.699999
G1 F1500
G1 X65.521 Y154.15 E.01362
G1 X55.85 Y154.15 E.6341
G1 X55.85 Y134.85 E1.26538
G1 X95.15 Y134.85 E2.57665
G1 X95.15 Y144.5 E.63269
G1 X95.15 Y154.15 E.63269
G1 X85.5 Y154.15 E.63269
G1 X85.398 Y154.16 E.00674
G1 X85.216 Y154.281 E.01434
G1 X85.15 Y154.479 E.01362
G1 X85.15 Y164.15 E.6341
G1 X65.85 Y164.15 E1.26538
G1 X65.85 Y154.5 E.63269
G1 X65.836 Y154.384 E.00765
G1 X65.753 Y154.265 E.00953
G1 X65.721 Y154.174
G1 E-.4 F2100
G1 X72.241 Y150.206 Z.6 F21000
G1 X94.953 Y136.383 Z.6
G1 Z.2
G1 E.4 F2100
;TYPE:Bottom surface
;WIDTH:0.703756
G1 F1513.235
G1 X93.912 Y135.343 E.09703
G1 X92.978 Y135.343 E.06162
G1 X94.657 Y137.022 E.15661
G1 X94.657 Y137.957 E.06162
G1 X92.043 Y135.343 E.24375
G1 X91.109 Y135.343 E.06162
G1 X94.657 Y138.891 E.3309
G1 X94.657 Y139.826 E.06162
G1 X90.174 Y135.343 E.41805
G1 X89.24 Y135.343 E.06162
G1 X94.657 Y140.76 E.5052
G1 X94.657 Y141.695 E.06162
G1 X88.305 Y135.343 E.59235
G1 X87.37 Y135.343 E.06162
G1 X94.657 Y142.63 E.6795
G1 X94.657 Y143.564 E.06162
G1 X86.436 Y135.343 E.76665
G1 X85.501 Y135.343 E.06162
G1 X94.657 Y144.499 E.8538
G1 X94.657 Y145.433 E.06162
G1 X84.567 Y135.343 E.94095
G1 X83.632 Y135.343 E.06162
G1 X94.657 Y146.368 E1.0281
G1 X94.657 Y147.302 E.06162
G1 X82.698 Y135.343 E1.11525
G1 X81.763 Y135.343 E.06162
G1 X94.657 Y148.237 E1.20239
G1 X94.657 Y149.172 E.06162
G1 X80.828 Y135.343 E1.28954
G1 X79.894 Y135.343 E.06162
G1 X94.657 Y150.106 E1.37669
G1 X94.657 Y151.041 E.06162
G1 X78.959 Y135.343 E1.46384
G1 X78.025 Y135.343 E.06162
G1 X94.657 Y151.975 E1.55099
G1 X94.657 Y152.91 E.06162
G1 X77.09 Y135.343 E1.63814
G1 X76.156 Y135.343 E.06162
