; HEADER_BLOCK_START
; generated by OrcaSlicer 1.6.3 on 2023-06-12 at 22:33:32
; total layer number: 82
; HEADER_BLOCK_END

; THUMBNAIL_BLOCK_START
; THUMBNAIL_BLOCK_END

; external perimeters extrusion width = 0.60mm
; perimeters extrusion width = 0.62mm
; infill extrusion width = 0.62mm
; solid infill extrusion width = 0.60mm
; top infill extrusion width = 0.60mm
; first layer extrusion width = 0.70mm

; EXECUTABLE_BLOCK_START
EXCLUDE_OBJECT_DEFINE NAME=retraction_tower.stl_id_0_copy_0 CENTER=120,120 POLYGON=[[100,115.5],[100.102,114.724],[100.402,114],[100.879,113.379],[101.5,112.902],[102.224,112.602],[103,112.5],[137,112.5],[137.776,112.602],[138.5,112.902],[139.121,113.379],[139.598,114],[139.898,114.724],[140,115.5],[140,124.5],[139.898,125.276],[139.598,126],[139.121,126.621],[138.5,127.098],[137.776,127.398],[137,127.5],[103,127.5],[102.224,127.398],[101.5,127.098],[100.879,126.621],[100.402,126],[100.102,125.276],[100,124.5],[100,115.5]]
M73 P0 R10
;TYPE:Custom
G90
G21
M83 ; use relative distances for extrusion
; filament start gcode
M106 S0
;LAYER_CHANGE
;Z:0.2
;HEIGHT:0.2
;BEFORE_LAYER_CHANGE
;0.2
G92 E0

; Calib_Retraction_tower: Z_HEIGHT: 0.2, length:0
;AFTER_LAYER_CHANGE
;0.2
M204 S500
; printing object retraction_tower.stl id:0 copy 0
EXCLUDE_OBJECT_START NAME=retraction_tower.stl_id_0_copy_0
G1 X100.443 Y114.815 F21000
G1 Z.2
G1 E0 F2100
;TYPE:Outer wall
;WIDTH:0.699999
G1 F1500
G1 X100.708 Y114.177 E.03775
G1 X101.128 Y113.628 E.03775
G1 X101.677 Y113.208 E.03775
G1 X102.315 Y112.943 E.03775
G1 X103.023 Y112.85 E.03902
G1 X136.977 Y112.85 E1.85513
G1 X137.685 Y112.943 E.03902
G1 X138.323 Y113.208 E.03775
G1 X138.872 Y113.628 E.03775
G1 X139.292 Y114.177 E.03775
G1 X139.557 Y114.815 E.03775
G3 X139.65 Y115.71 I-10.101 J1.504 E.04921
G1 X139.65 Y124.477 E.47898
G1 X139.557 Y125.185 E.03902
G1 X139.292 Y125.823 E.03775
G1 X138.872 Y126.372 E.03775
G1 X138.323 Y126.792 E.03775
G1 X137.685 Y127.057 E.03775
G1 X136.977 Y127.15 E.03902
G1 X103.023 Y127.15 E1.85513
G1 X102.315 Y127.057 E.03902
G1 X101.677 Y126.792 E.03775
G1 X101.128 Y126.372 E.03775
G1 X100.708 Y125.823 E.03775
G1 X100.443 Y125.185 E.03775
G1 X100.35 Y124.477 E.03902
G1 X100.35 Y115.523 E.48922
G1 X100.435 Y114.874 E.03574
G1 X100.521 Y114.794
G1 X137.7 Y113.163 F21000
;TYPE:Bottom surface
;WIDTH:0.710244
G1 F1798.227
G1 X138.531 Y113.994 E.06523
G1 X138.862 Y114.425 E.03015
G1 X139.077 Y114.944 E.03114
G1 X139.157 Y115.564 E.0347
G1 X136.936 Y113.343 E.17429
G1 X135.992 Y113.343 E.05237
G1 X139.157 Y116.508 E.24834
M73 P1 R10
G1 X139.157 Y117.451 E.05237
G1 X135.049 Y113.343 E.3224
G1 X134.105 Y113.343 E.05237
G1 X139.157 Y118.395 E.39646
G1 X139.157 Y119.339 E.05237
G1 X133.161 Y113.343 E.47051
G1 X132.218 Y113.343 E.05237
G1 X139.157 Y120.282 E.54457
G1 X139.157 Y121.226 E.05237
G1 X131.274 Y113.343 E.61863
G1 X130.33 Y113.343 E.05237
G1 X139.157 Y122.17 E.69269
G1 X139.157 Y123.114 E.05237
G1 X129.386 Y113.343 E.76674
G1 X128.443 Y113.343 E.05237
G1 X139.157 Y124.057 E.8408
G3 X139.092 Y124.936 I-3.371 J.194 E.04905
G1 X127.499 Y113.343 E.90978
M73 P1 R9
G1 X126.555 Y113.343 E.05237
G1 X138.829 Y125.617 E.9632
G1 X138.52 Y126.02 E.02819
G1 X138.389 Y126.121 E.00916
G1 X125.611 Y113.343 E1.00271
G1 X124.668 Y113.343 E.05237
G1 X137.8 Y126.476 E1.03056
M73 P2 R9
G1 X137.556 Y126.577 E.01465
G1 X137.027 Y126.646 E.02961
G1 X123.724 Y113.343 E1.04396
G1 X122.78 Y113.343 E.05237
G1 X136.095 Y126.657 E1.04481
G1 X135.151 Y126.657 E.05237
G1 X121.836 Y113.343 E1.04481
G1 X120.893 Y113.343 E.05237
G1 X134.207 Y126.657 E1.04481
G1 X133.263 Y126.657 E.05237
G1 X119.949 Y113.343 E1.04481
G1 X119.005 Y113.343 E.05237
G1 X132.32 Y126.657 E1.04481
G1 X131.376 Y126.657 E.05237
G1 X118.061 Y113.343 E1.04481
G1 X117.118 Y113.343 E.05237
G1 X130.432 Y126.657 E1.04481
G1 X129.488 Y126.657 E.05237
G1 X116.174 Y113.343 E1.04481
M73 P3 R9
G1 X115.23 Y113.343 E.05237
G1 X128.545 Y126.657 E1.04481
G1 X127.601 Y126.657 E.05237
G1 X114.286 Y113.343 E1.04481
G1 X113.343 Y113.343 E.05237
G1 X126.657 Y126.657 E1.04481
G1 X125.713 Y126.657 E.05237
G1 X112.399 Y113.343 E1.04481
G1 X111.455 Y113.343 E.05237
G1 X124.77 Y126.657 E1.04481
G1 X123.826 Y126.657 E.05237
G1 X110.512 Y113.343 E1.04481
G1 X109.568 Y113.343 E.05237
G1 X122.882 Y126.657 E1.04481
G1 X121.938 Y126.657 E.05237
G1 X108.624 Y113.343 E1.04481
G1 X107.68 Y113.343 E.05237
M73 P4 R9
G1 X120.995 Y126.657 E1.04481
G1 X120.051 Y126.657 E.05237
G1 X106.737 Y113.343 E1.04481
G1 X105.793 Y113.343 E.05237
G1 X119.107 Y126.657 E1.04481
G1 X118.164 Y126.657 E.05237
G1 X104.849 Y113.343 E1.04481
G1 X103.905 Y113.343 E.05237
G1 X117.22 Y126.657 E1.04481
G1 X116.276 Y126.657 E.05237
G1 X102.973 Y113.354 E1.04396
G1 X102.444 Y113.423 E.0296
G1 X102.2 Y113.524 E.01466
G1 X115.332 Y126.657 E1.03056
G1 X114.389 Y126.657 E.05237
G1 X101.611 Y113.879 E1.00271
G1 X101.48 Y113.98 E.00916
G1 X101.17 Y114.383 E.02819
G1 X113.445 Y126.657 E.96319
M73 P5 R9
G1 X112.501 Y126.657 E.05237
G1 X100.908 Y115.064 E.90977
G2 X100.843 Y115.943 I3.306 J.685 E.04905
G1 X111.557 Y126.657 E.84079
G1 X110.614 Y126.657 E.05237
G1 X100.843 Y116.886 E.76674
G1 X100.843 Y117.83 E.05237
G1 X109.67 Y126.657 E.69268
G1 X108.726 Y126.657 E.05237
G1 X100.843 Y118.774 E.61862
G1 X100.843 Y119.718 E.05237
G1 X107.782 Y126.657 E.54456
G1 X106.839 Y126.657 E.05237
G1 X100.843 Y120.661 E.47051
G1 X100.843 Y121.605 E.05237
G1 X105.895 Y126.657 E.39645
G1 X104.951 Y126.657 E.05237
G1 X100.843 Y122.549 E.32239
G1 X100.843 Y123.493 E.05237
G1 X104.007 Y126.657 E.24834
G1 X103.064 Y126.657 E.05237
G1 X100.843 Y124.436 E.17428
G1 X100.923 Y125.056 E.0347
G1 X101.138 Y125.575 E.03114
G1 X101.469 Y126.006 E.03018
G1 X102.3 Y126.837 E.06519
; stop printing object retraction_tower.stl id:0 copy 0
EXCLUDE_OBJECT_END NAME=retraction_tower.stl_id_0_copy_0
M106 S255
;LAYER_CHANGE
;Z:0.4
;HEIGHT:0.2
;BEFORE_LAYER_CHANGE
;0.4
G92 E0

; Calib_Retraction_tower: Z_HEIGHT: 0.4, length:0
;WIPE_START
G1 F1798.227
G1 X101.469 Y126.006
G1 X101.138 Y125.575
G1 X101.031 Y125.315
;WIPE_END
;AFTER_LAYER_CHANGE
;0.4
M204 S2000
M140 S35 ; set bed temperature
; printing object retraction_tower.stl id:0 copy 0
EXCLUDE_OBJECT_START NAME=retraction_tower.stl_id_0_copy_0
M204 S7500
G1 X137.55 Y126.553 Z.4 F21000
M204 S2000
;TYPE:Inner wall
;WIDTH:0.619999
G1 F2079.438
G1 X136.943 Y126.633 E.02938
G1 X103.057 Y126.633 E1.626
G1 X102.45 Y126.553 E.02938
G1 X101.937 Y126.341 E.02664
G1 X101.497 Y126.003 E.02662
G1 X101.159 Y125.563 E.02662
G1 X100.947 Y125.05 E.02664
G1 X100.867 Y124.443 E.02938
G1 X100.867 Y115.557 E.42639
M73 P6 R9
G1 X100.947 Y114.95 E.02938
G1 X101.159 Y114.437 E.02664
G1 X101.497 Y113.997 E.02662
G1 X101.937 Y113.659 E.02662
G1 X102.45 Y113.447 E.02664
G1 X103.057 Y113.367 E.02938
G1 X136.943 Y113.367 E1.626
G1 X137.55 Y113.447 E.02938
G1 X138.063 Y113.659 E.02664
G1 X138.503 Y113.997 E.02662
G1 X138.841 Y114.437 E.02662
G1 X139.053 Y114.95 E.02664
G1 X139.133 Y115.71 E.03667
G1 X139.133 Y124.443 E.41905
G1 X139.053 Y125.05 E.02938
G1 X138.841 Y125.563 E.02664
G1 X138.503 Y126.003 E.02662
G1 X138.063 Y126.341 E.02662
G1 X137.606 Y126.53 E.02373
M204 S7500
G1 X137.698 Y127.106 F21000
M204 S1500
;TYPE:Outer wall
;WIDTH:0.599999
G1 F1800
G1 X136.98 Y127.2 E.03354
G1 X103.02 Y127.2 E1.5731
G1 X102.302 Y127.106 E.03354
G1 X101.651 Y126.836 E.03262
G1 X101.093 Y126.407 E.03262
G1 X100.664 Y125.849 E.03262
G1 X100.394 Y125.198 E.03262
G1 X100.3 Y124.48 E.03354
G1 X100.3 Y115.52 E.41507
G1 X100.394 Y114.802 E.03354
G1 X100.664 Y114.151 E.03262
G1 X101.093 Y113.593 E.03262
G1 X101.651 Y113.164 E.03262
G1 X102.302 Y112.895 E.03262
G1 X103.02 Y112.8 E.03354
G1 X136.98 Y112.8 E1.5731
G1 X137.698 Y112.895 E.03354
G1 X138.349 Y113.164 E.03262
G1 X138.907 Y113.593 E.03262
G1 X139.336 Y114.151 E.03262
G1 X139.606 Y114.802 E.03262
G3 X139.7 Y115.71 I-10.191 J1.519 E.04233
G1 X139.7 Y124.48 E.40623
G1 X139.606 Y125.198 E.03354
G1 X139.336 Y125.849 E.03262
G1 X138.907 Y126.407 E.03262
G1 X138.349 Y126.836 E.03262
G1 X137.754 Y127.083 E.02984
G1 X137.642 Y127.049
M204 S2000
M204 S7500
G1 X138.877 Y125.024 F21000
M204 S2000
;TYPE:Internal solid infill
;WIDTH:0.606287
G1 F2130.05
G1 X138.197 Y125.705 E.04511
G1 X137.849 Y125.971 E.02049
G1 X137.44 Y126.141 E.02078
G1 X136.895 Y126.21 E.02573
G1 X138.71 Y124.395 E.12026
G1 X138.71 Y123.598 E.03732
G1 X136.098 Y126.21 E.17304
G1 X135.301 Y126.21 E.03732
G1 X138.71 Y122.801 E.22582
G1 X138.71 Y122.005 E.03732
G1 X134.505 Y126.21 E.2786
G1 X133.708 Y126.21 E.03732
G1 X138.71 Y121.208 E.33139
M73 P7 R9
G1 X138.71 Y120.411 E.03732
G1 X132.911 Y126.21 E.38417
G1 X132.114 Y126.21 E.03732
G1 X138.71 Y119.614 E.43695
G1 X138.71 Y118.818 E.03732
G1 X131.318 Y126.21 E.48973
G1 X130.521 Y126.21 E.03732
G1 X138.71 Y118.021 E.54251
G1 X138.71 Y117.224 E.03732
G1 X129.724 Y126.21 E.59529
G1 X128.928 Y126.21 E.03732
G1 X138.71 Y116.428 E.64807
G1 X138.71 Y115.631 E.03732
G1 X128.131 Y126.21 E.70085
G1 X127.334 Y126.21 E.03732
G1 X138.595 Y114.949 E.74601
G2 X138.309 Y114.439 I-1.096 J.279 E.02773
G1 X126.537 Y126.21 E.77983
G1 X125.741 Y126.21 E.03732
G1 X137.891 Y114.06 E.8049
G1 X137.849 Y114.029 E.00243
G1 X137.44 Y113.859 E.02078
G1 X137.312 Y113.842 E.00604
G1 X124.944 Y126.21 E.81935
G1 X124.147 Y126.21 E.03732
G1 X136.567 Y113.79 E.82281
G1 X135.771 Y113.79 E.03732
G1 X123.351 Y126.21 E.82281
G1 X122.554 Y126.21 E.03732
G1 X134.974 Y113.79 E.82281
M73 P8 R9
G1 X134.177 Y113.79 E.03732
G1 X121.757 Y126.21 E.82281
G1 X120.96 Y126.21 E.03732
G1 X133.381 Y113.79 E.82281
G1 X132.584 Y113.79 E.03732
G1 X120.164 Y126.21 E.82281
G1 X119.367 Y126.21 E.03732
G1 X131.787 Y113.79 E.82281
G1 X130.99 Y113.79 E.03732
G1 X118.57 Y126.21 E.82281
G1 X117.773 Y126.21 E.03732
G1 X130.194 Y113.79 E.82281
G1 X129.397 Y113.79 E.03732
G1 X116.977 Y126.21 E.82281
G1 X116.18 Y126.21 E.03732
G1 X128.6 Y113.79 E.82281
G1 X127.804 Y113.79 E.03732
G1 X115.383 Y126.21 E.82281
G1 X114.587 Y126.21 E.03732
G1 X127.007 Y113.79 E.82281
G1 X126.21 Y113.79 E.03732
G1 X113.79 Y126.21 E.82281
G1 X112.993 Y126.21 E.03732
M73 P9 R9
G1 X125.413 Y113.79 E.82281
G1 X124.617 Y113.79 E.03732
G1 X112.196 Y126.21 E.82281
G1 X111.4 Y126.21 E.03732
G1 X123.82 Y113.79 E.82281
G1 X123.023 Y113.79 E.03732
G1 X110.603 Y126.21 E.82281
G1 X109.806 Y126.21 E.03732
G1 X122.226 Y113.79 E.82281
G1 X121.43 Y113.79 E.03732
G1 X109.01 Y126.21 E.82281
G1 X108.213 Y126.21 E.03732
G1 X120.633 Y113.79 E.82281
G1 X119.836 Y113.79 E.03732
G1 X107.416 Y126.21 E.82281
G1 X106.619 Y126.21 E.03732
G1 X119.04 Y113.79 E.82281
G1 X118.243 Y113.79 E.03732
G1 X105.823 Y126.21 E.82281
G1 X105.026 Y126.21 E.03732
G1 X117.446 Y113.79 E.82281
G1 X116.649 Y113.79 E.03732
G1 X104.229 Y126.21 E.82281
M73 P10 R9
G1 X103.432 Y126.21 E.03732
G1 X115.853 Y113.79 E.82281
G1 X115.056 Y113.79 E.03732
G1 X102.688 Y126.158 E.81935
G1 X102.56 Y126.141 E.00603
G1 X102.151 Y125.971 E.02078
G1 X102.109 Y125.94 E.00243
G1 X114.259 Y113.79 E.8049
G1 X113.463 Y113.79 E.03732
G1 X101.691 Y125.561 E.77983
G3 X101.405 Y125.051 I.809 J-.789 E.02773
G1 X112.666 Y113.79 E.74601
G1 X111.869 Y113.79 E.03732
G1 X101.29 Y124.369 E.70085
G1 X101.29 Y123.572 E.03732
G1 X111.072 Y113.79 E.64807
G1 X110.276 Y113.79 E.03732
G1 X101.29 Y122.776 E.59529
G1 X101.29 Y121.979 E.03732
G1 X109.479 Y113.79 E.5425
G1 X108.682 Y113.79 E.03732
G1 X101.29 Y121.182 E.48972
G1 X101.29 Y120.385 E.03732
G1 X107.885 Y113.79 E.43694
G1 X107.089 Y113.79 E.03732
G1 X101.29 Y119.589 E.38416
G1 X101.29 Y118.792 E.03732
G1 X106.292 Y113.79 E.33138
G1 X105.495 Y113.79 E.03732
G1 X101.29 Y117.995 E.2786
G1 X101.29 Y117.199 E.03732
G1 X104.699 Y113.79 E.22582
G1 X103.902 Y113.79 E.03732
G1 X101.29 Y116.402 E.17304
M73 P11 R9
G1 X101.29 Y115.605 E.03732
G1 X103.105 Y113.79 E.12026
G1 X102.56 Y113.859 E.02573
G1 X102.151 Y114.029 E.02078
G1 X101.803 Y114.295 E.02051
G1 X101.123 Y114.976 E.04509
; stop printing object retraction_tower.stl id:0 copy 0
EXCLUDE_OBJECT_END NAME=retraction_tower.stl_id_0_copy_0
;LAYER_CHANGE
;Z:0.6
;HEIGHT:0.2
;BEFORE_LAYER_CHANGE
;0.6
G92 E0

; Calib_Retraction_tower: Z_HEIGHT: 0.6, length:0
;WIPE_START
G1 F2130.05
G1 X101.803 Y114.295
G1 X102.151 Y114.029
G1 X102.56 Y113.859
G1 X102.715 Y113.839
;WIPE_END
;AFTER_LAYER_CHANGE
;0.6
; printing object retraction_tower.stl id:0 copy 0
EXCLUDE_OBJECT_START NAME=retraction_tower.stl_id_0_copy_0
M204 S7500
G1 X133.622 Y119.942 Z.6 F21000
M204 S2000
;TYPE:Inner wall
;WIDTH:0.619999
G1 F753
G1 X133.815 Y119.254 E.03429
G1 X134.032 Y118.831 E.02281
G1 X134.285 Y118.518 E.01931
G1 X134.592 Y118.258 E.0193
G1 X134.943 Y118.062 E.01929
G1 X135.324 Y117.935 E.01927
G1 X135.723 Y117.882 E.01931
G1 X136.124 Y117.906 E.01928
G1 X136.513 Y118.004 E.01925
G1 X136.878 Y118.175 E.01934
G1 X137.203 Y118.411 E.01927
G1 X137.477 Y118.705 E.01928
G1 X137.691 Y119.045 E.01928
G1 X137.838 Y119.418 E.01924
G1 X137.91 Y119.812 E.01922
G1 X137.928 Y120.014 E.00973
G1 X137.883 Y120.435 E.02032
G1 X137.756 Y120.836 E.02018
G1 X137.443 Y121.341 E.02851
G1 X137.004 Y121.755 E.02895
G1 X136.635 Y121.956 E.02016
G1 X136.061 Y122.104 E.02844
G1 X135.456 Y122.1 E.02903
G1 X135.051 Y121.99 E.02014
G1 X134.535 Y121.701 E.02838
G1 X134.1 Y121.28 E.02905
G1 X133.883 Y120.92 E.02017
G1 X133.738 Y120.51 E.02087
G1 X133.634 Y120.001 E.02493
M204 S7500
G1 X133.029 Y119.981 F21000
M204 S1500
;TYPE:Outer wall
;WIDTH:0.599999
G1 F753
G1 X133.029 Y119.979 E.0001
G3 X133.321 Y118.964 I8.492 J1.897 E.04893
G1 X133.561 Y118.516 E.02357
G1 X133.881 Y118.12 E.02358
G1 X134.27 Y117.792 E.02359
G1 X134.715 Y117.543 E.02359
G1 X135.198 Y117.382 E.02359
G1 X135.703 Y117.315 E.0236
G1 X136.211 Y117.345 E.02359
G1 X136.705 Y117.471 E.0236
G1 X137.166 Y117.687 E.0236
G1 X137.578 Y117.987 E.0236
G1 X137.927 Y118.359 E.0236
G1 X138.198 Y118.79 E.02361
G1 X138.384 Y119.266 E.02367
G1 X138.475 Y119.762 E.02336
G1 X138.498 Y120.019 E.01193
G1 X138.441 Y120.552 E.02485
G1 X138.28 Y121.062 E.02479
G1 X138.122 Y121.346 E.01504
G1 X137.737 Y121.879 E.03044
G1 X137.326 Y122.225 E.0249
G1 X136.856 Y122.482 E.02478
G1 X136.543 Y122.578 E.0152
G1 X135.899 Y122.697 E.0303
G1 X135.363 Y122.663 E.02488
G1 X134.847 Y122.523 E.02477
G1 X134.551 Y122.374 E.01536
G1 X134.007 Y122.016 E.03017
G1 X133.643 Y121.621 E.02486
G1 X133.368 Y121.163 E.02476
G3 X133.285 Y120.91 I12.69 J-4.271 E.01235
G1 X133.045 Y120.039 E.04186
G1 X133.03 Y119.98
M204 S2000
M204 S7500
G1 X135.426 Y119.976 F21000
M204 S2000
;TYPE:Internal solid infill
;WIDTH:0.75641
G1 F753
G1 X135.515 Y120.22 E.0154
G1 X135.683 Y120.339 E.01218
G1 X135.892 Y120.344 E.01241
G1 X136.084 Y120.224 E.01344
G1 X136.161 Y119.998 E.01416
M73 P11 R8
G1 X136.084 Y119.78 E.0137
G1 X135.92 Y119.661 E.012
G1 X135.719 Y119.649 E.01199
G1 X135.542 Y119.749 E.01203
G1 X135.454 Y119.923 E.01155
M204 S7500
G1 X134.776 Y119.96 F21000
M204 S2000
;WIDTH:0.599999
G1 F753
G1 X134.905 Y120.438 E.02289
G1 X135.141 Y120.751 E.01818
G1 X135.455 Y120.935 E.01685
G1 X135.845 Y120.999 E.01831
G1 X136.196 Y120.915 E.01673
G1 X136.524 Y120.689 E.01844
G1 X136.719 Y120.388 E.01661
G1 X136.799 Y120.003 E.01821
G2 X136.529 Y119.317 I-1.147 J.054 E.03478
G1 X136.224 Y119.095 E.01747
G1 X135.859 Y119.002 E.01748
G1 X135.484 Y119.051 E.01749
G1 X135.155 Y119.236 E.01748
G1 X134.918 Y119.529 E.01748
G1 X134.795 Y119.904 E.01825
M204 S7500
G1 X134.205 Y119.947 F21000
M204 S2000
G1 F753
G1 X134.322 Y120.459 E.02435
G1 X134.478 Y120.808 E.0177
G1 X134.767 Y121.168 E.02139
G1 X135.255 Y121.458 E.02627
G1 X135.736 Y121.55 E.02271
G1 X136.101 Y121.527 E.01694
G1 X136.548 Y121.358 E.02213
G1 X136.923 Y121.081 E.02161
G1 X137.233 Y120.61 E.0261
G1 X137.343 Y120.155 E.02168
G1 X137.346 Y119.861 E.01362
G1 X137.252 Y119.432 E.02034
G1 X137.028 Y119.051 E.02047
G1 X136.717 Y118.739 E.02044
G1 X136.322 Y118.538 E.02049
G1 X135.892 Y118.443 E.02042
G1 X135.451 Y118.487 E.02049
G1 X135.037 Y118.64 E.02044
G1 X134.69 Y118.915 E.02051
G1 X134.424 Y119.266 E.02041
G2 X134.22 Y119.889 I2.566 J1.188 E.03043
M204 S7500
;WIPE_START
G1 F2154.093
G1 X134.276 Y119.662
