; HEADER_BLOCK_START
; generated by OrcaSlicer 1.6.3 on 2023-06-12 at 22:31:33
; total layer number: 250
; HEADER_BLOCK_END

; THUMBNAIL_BLOCK_START
; THUMBNAIL_BLOCK_END

; external perimeters extrusion width = 0.60mm
; perimeters extrusion width = 0.62mm
; infill extrusion width = 0.65mm
; solid infill extrusion width = 0.60mm
; top infill extrusion width = 0.60mm
; first layer extrusion width = 0.70mm

; EXECUTABLE_BLOCK_START
EXCLUDE_OBJECT_DEFINE NAME=temperature_tower.stl_id_0_copy_0 CENTER=120,120 POLYGON=[[115,102.215],[115.002,102.105],[115.006,102.005],[115.011,101.919],[115.016,101.855],[115.016,101.846],[115.021,101.79],[115.025,101.749],[115.028,101.724],[115.03,101.702],[115.032,101.686],[115.035,101.664],[115.038,101.636],[115.042,101.604],[115.047,101.568],[115.053,101.527],[115.057,101.497],[115.062,101.465],[115.078,101.373],[115.11,101.208],[115.124,101.143],[115.17,100.96],[115.195,100.867],[115.25,100.691],[115.267,100.639],[115.296,100.556],[115.321,100.489],[115.336,100.45],[115.381,100.337],[115.389,100.316],[115.418,100.248],[115.423,100.238],[115.433,100.215],[115.507,100.057],[115.529,100.013],[115.624,99.8325],[115.668,99.7535],[115.745,99.625],[115.836,99.4833],[115.998,99.254],[116.257,98.9366],[116.516,98.6661],[116.704,98.4924],[116.772,98.4342],[117.017,98.2403],[117.18,98.1228],[117.238,98.0838],[117.383,97.991],[117.427,97.9643],[117.555,97.89],[117.582,97.8748],[117.63,97.849],[117.694,97.8149],[117.704,97.81],[117.746,97.7883],[117.783,97.7699],[117.803,97.7598],[117.811,97.7562],[122.19,97.7566],[122.208,97.7654],[122.237,97.78],[122.282,97.8027],[122.342,97.8339],[122.344,97.8351],[122.42,97.8759],[122.508,97.9263],[122.597,97.9789],[122.72,98.0567],[122.794,98.105],[122.962,98.2233],[123.006,98.2558],[123.218,98.4252],[123.465,98.6468],[123.484,98.6657],[123.75,98.9446],[123.9,99.1233],[124.008,99.2618],[124.25,99.6175],[124.258,99.6308],[124.379,99.8381],[124.394,99.865],[124.495,100.061],[124.518,100.109],[124.567,100.215],[124.577,100.238],[124.582,100.248],[124.611,100.316],[124.619,100.337],[124.664,100.45],[124.676,100.481],[124.699,100.542],[124.704,100.556],[124.733,100.639],[124.746,100.68],[124.762,100.727],[124.811,100.888],[124.83,100.96],[124.876,101.143],[124.89,101.208],[124.922,101.373],[124.938,101.465],[124.943,101.497],[124.947,101.527],[124.953,101.568],[124.958,101.604],[124.962,101.636],[124.965,101.664],[124.968,101.686],[124.97,101.702],[124.972,101.724],[124.975,101.749],[124.979,101.79],[124.984,101.846],[124.984,101.855],[124.989,101.919],[124.994,102.005],[124.998,102.105],[125,102.215],[125,132.986],[125,142.244],[115,142.244],[115,102.215]]
M73 P0 R42
;TYPE:Custom
START_PRINT EXTRUDER_TEMP=250 BED_TEMP=80 AREA_START=111.357,97.5805 AREA_END=128.643,136.471
G90
G21
M83 ; use relative distances for extrusion
; filament start gcode
M106 S0
;LAYER_CHANGE
;Z:0.2
;HEIGHT:0.2
;BEFORE_LAYER_CHANGE
;0.2
G92 E0

M104 S250 ; set nozzle temperature
G1 E-.3 F2100
;AFTER_LAYER_CHANGE
;0.2
M204 S500
; printing object temperature_tower.stl id:0 copy 0
EXCLUDE_OBJECT_START NAME=temperature_tower.stl_id_0_copy_0
G1 X112.517 Y99.294 F21000
G1 Z.4
G1 Z.2
G1 E.3 F2100
;TYPE:Brim
;WIDTH:0.7
G1 X112.907 Y98.871 E.03141
G1 X113.359 Y98.516 E.03141
G1 X113.861 Y98.236 E.03141
G1 X114.401 Y98.04 E.03141
G1 X114.97 Y97.931 E.03164
G1 X115.37 Y97.909 E.02186
G1 X122.116 Y97.909 E.3686
G1 X124.626 Y97.909 E.13714
G1 X125.212 Y97.956 E.03213
G1 X125.771 Y98.092 E.03141
G1 X126.301 Y98.315 E.03141
G1 X126.789 Y98.619 E.03141
G1 X127.222 Y98.997 E.03141
G1 X127.59 Y99.439 E.03141
G1 X127.884 Y99.933 E.03141
G1 X128.096 Y100.47 E.03155
G1 X128.207 Y100.941 E.0264
G1 X128.288 Y101.6 E.03631
G1 X128.314 Y102.223 E.03405
G1 X128.314 Y132.515 E1.65505
G1 X128.267 Y133.101 E.03213
G1 X128.131 Y133.66 E.03141
G1 X127.908 Y134.19 E.03141
G1 X127.604 Y134.678 E.03141
G1 X127.226 Y135.111 E.03141
G1 X126.784 Y135.479 E.03141
G1 X126.29 Y135.772 E.03141
G1 X125.755 Y135.983 E.03141
G1 X125.192 Y136.108 E.03151
G1 X124.689 Y136.142 E.02755
G1 X115.313 Y136.142 E.51226
G1 X114.727 Y136.095 E.03213
G1 X114.168 Y135.959 E.03141
G1 X113.638 Y135.736 E.03141
G1 X113.15 Y135.432 E.03141
G1 X112.717 Y135.054 E.03141
G1 X112.349 Y134.612 E.03141
G1 X112.056 Y134.118 E.03141
G1 X111.845 Y133.583 E.03141
G1 X111.72 Y133.02 E.03151
G1 X111.686 Y132.517 E.02755
G1 X111.686 Y102.225 E1.65506
G1 X111.727 Y101.436 E.04315
G1 X111.809 Y100.857 E.03194
G1 X111.962 Y100.297 E.03172
G1 X112.2 Y99.773 E.03141
G1 X112.484 Y99.344 E.02813
G1 X113.032 Y99.711 F21000
G1 F2100
G1 X113.047 Y99.689 E.00145
G1 X113.367 Y99.345 E.02567
G1 X113.738 Y99.057 E.02567
G1 X114.149 Y98.83 E.02567
G1 X114.592 Y98.672 E.02567
G1 X115.037 Y98.587 E.02477
G1 X115.393 Y98.566 E.01948
G1 X122.116 Y98.566 E.36732
G1 X124.592 Y98.566 E.13528
G1 X125.092 Y98.606 E.0274
G1 X125.549 Y98.714 E.02567
G1 X125.983 Y98.894 E.02567
G1 X126.409 Y99.159 E.02738
G1 X126.739 Y99.448 E.02396
G1 X127.042 Y99.807 E.02567
G1 X127.297 Y100.238 E.02738
G1 X127.462 Y100.654 E.02446
G1 X127.56 Y101.067 E.0232
G1 X127.633 Y101.662 E.03274
G1 X127.657 Y102.241 E.03164
G1 X127.657 Y132.481 E1.65222
G1 X127.613 Y133.012 E.02911
G1 X127.499 Y133.468 E.02567
G1 X127.315 Y133.9 E.02567
G1 X127.064 Y134.297 E.02567
G1 X126.753 Y134.65 E.02567
G1 X126.391 Y134.949 E.02567
G1 X125.985 Y135.186 E.02567
G1 X125.547 Y135.356 E.02567
G1 X125.113 Y135.452 E.02432
G1 X124.66 Y135.485 E.02481
G1 X115.347 Y135.485 E.5088
G1 X114.816 Y135.441 E.02911
G1 X114.36 Y135.327 E.02567
G1 X113.928 Y135.143 E.02567
G1 X113.531 Y134.892 E.02567
G1 X113.178 Y134.581 E.02567
G1 X112.879 Y134.219 E.02567
G1 X112.642 Y133.813 E.02567
G1 X112.472 Y133.375 E.02567
G1 X112.372 Y132.912 E.02591
G1 X112.343 Y132.488 E.02322
G1 X112.343 Y102.247 E1.65225
G1 X112.381 Y101.508 E.04041
G1 X112.452 Y101.003 E.02789
G1 X112.589 Y100.506 E.02812
G1 X112.785 Y100.079 E.02567
G1 X112.999 Y99.761 E.02094
G1 X113.544 Y100.132 F21000
G1 F2100
G1 X113.574 Y100.087 E.00296
G1 X113.825 Y99.822 E.01993
G1 X114.114 Y99.6 E.01993
G1 X114.435 Y99.426 E.01993
G1 X114.78 Y99.305 E.02
G1 X115.106 Y99.243 E.01813
G1 X115.418 Y99.223 E.01709
G1 X122.116 Y99.223 E.36595
G1 X124.559 Y99.223 E.13345
G1 X124.974 Y99.255 E.02278
G1 X125.361 Y99.347 E.02169
G1 X125.695 Y99.489 E.01986
G1 X126.003 Y99.681 E.0198
G1 X126.258 Y99.9 E.01835
G1 X126.494 Y100.176 E.01987
G1 X126.711 Y100.543 E.02328
G1 X126.837 Y100.866 E.01893
G1 X126.914 Y101.195 E.01846
G1 X126.978 Y101.724 E.02911
G1 X127 Y102.258 E.02925
G1 X127 Y132.445 E1.64931
G1 X126.958 Y132.92 E.02602
G1 X126.868 Y133.273 E.01989
G1 X126.722 Y133.607 E.01993
G1 X126.545 Y133.889 E.01822
G1 X126.305 Y134.164 E.01993
G1 X126.025 Y134.398 E.01993
G1 X125.712 Y134.585 E.01993
G1 X125.371 Y134.72 E.02005
G1 X125.032 Y134.797 E.019
G1 X124.629 Y134.828 E.02208
G1 X115.383 Y134.828 E.50518
G1 X114.908 Y134.786 E.02602
G1 X114.555 Y134.696 E.01989
G1 X114.221 Y134.55 E.01993
G1 X113.914 Y134.354 E.01993
G1 X113.642 Y134.111 E.01993
G1 X113.412 Y133.828 E.01993
G1 X113.23 Y133.512 E.01993
G1 X113.1 Y133.171 E.01994
G1 X113.027 Y132.834 E.01883
G1 X113.001 Y132.472 E.01982
G1 X113 Y102.269 E1.6502
G1 X113.035 Y101.579 E.03771
G1 X113.095 Y101.149 E.02377
G1 X113.215 Y100.718 E.02443
G1 X113.369 Y100.389 E.01985
G1 X113.51 Y100.181 E.01369
G1 X114.039 Y100.571 F21000
G1 F2100
G1 X114.129 Y100.449 E.00829
G1 X114.377 Y100.221 E.01841
G1 X114.68 Y100.042 E.01923
G1 X114.882 Y99.96 E.01193
G1 X115.082 Y99.911 E.01125
G1 X115.288 Y99.893 E.01129
G1 X124.614 Y99.88 E.50956
G1 X124.762 Y99.895 E.00811
G1 X125.091 Y99.96 E.01831
G1 X125.271 Y100.02 E.01039
G1 X125.463 Y100.112 E.01163
G1 X125.665 Y100.255 E.01353
G1 X125.857 Y100.443 E.01471
G1 X125.983 Y100.607 E.01126
G1 X126.131 Y100.865 E.01628
G1 X126.214 Y101.075 E.01231
G1 X126.309 Y101.629 E.03074
G1 X126.343 Y102.226 E.03268
G1 X126.343 Y132.498 E1.65393
G1 X126.262 Y132.983 E.02684
G1 X126.203 Y133.16 E.0102
G1 X126.111 Y133.352 E.01163
G1 X125.969 Y133.554 E.01353
G1 X125.783 Y133.742 E.01443
G1 X125.598 Y133.88 E.01262
G1 X125.3 Y134.038 E.01839
G1 X125.075 Y134.114 E.013
G1 X124.67 Y134.171 E.02235
G1 X115.323 Y134.171 E.51067
G1 X115.176 Y134.156 E.00808
G1 X114.848 Y134.091 E.01827
G1 X114.668 Y134.031 E.01037
G1 X114.476 Y133.939 E.01163
G1 X114.274 Y133.797 E.01353
G1 X114.086 Y133.611 E.01443
G1 X113.948 Y133.426 E.01262
G1 X113.79 Y133.128 E.01839
G1 X113.714 Y132.903 E.013
G1 X113.657 Y132.498 E.02235
G1 X113.66 Y102.161 E1.65751
G1 X113.752 Y101.238 E.05069
G1 X113.876 Y100.848 E.02234
G1 X114.001 Y100.623 E.01408
G1 X114.004 Y100.62 E.0002
G1 X114.533 Y101.009 F21000
G1 F2100
G1 X114.669 Y100.824 E.01259
G1 X114.782 Y100.737 E.00776
G1 X114.911 Y100.657 E.00832
G1 X115.14 Y100.565 E.01349
G1 X115.28 Y100.55 E.00771
G1 X124.625 Y100.538 E.51054
G1 X124.975 Y100.607 E.01952
G1 X125.193 Y100.712 E.0132
G1 X125.406 Y100.921 E.01633
G1 X125.568 Y101.204 E.01778
G1 X125.589 Y101.272 E.00393
G1 X125.661 Y101.739 E.02578
G1 X125.686 Y102.221 E.02639
G1 X125.686 Y132.514 E1.65513
G1 X125.616 Y132.864 E.01947
G1 X125.512 Y133.082 E.0132
G1 X125.304 Y133.292 E.01615
G1 X124.979 Y133.464 E.02008
G1 X124.684 Y133.514 E.01638
G1 X115.314 Y133.514 E.51195
G1 X114.964 Y133.444 E.01947
G1 X114.746 Y133.34 E.0132
G1 X114.536 Y133.132 E.01615
G1 X114.364 Y132.807 E.02008
G1 X114.314 Y132.512 E.01638
G1 X114.314 Y102.224 E1.65479
G1 X114.382 Y101.422 E.04397
G1 X114.458 Y101.151 E.01538
G1 X114.503 Y101.062 E.00548
G1 X115.091 Y101.356 F21000
G1 F2100
G1 X115.118 Y101.301 E.00331
G1 X115.271 Y101.207 E.00981
G1 X124.639 Y101.195 E.51186
G1 X124.812 Y101.244 E.00981
G1 X124.933 Y101.376 E.00981
G1 X124.965 Y101.479 E.0059
G1 X125.011 Y101.829 E.01928
G1 X125.029 Y102.216 E.02116
G1 X125.029 Y132.528 E1.65614
M73 P0 R41
G1 X124.98 Y132.701 E.00981
G1 X124.847 Y132.822 E.00981
G1 X124.7 Y132.857 E.00825
G1 X115.3 Y132.857 E.51359
G1 X115.127 Y132.808 E.00981
G1 X115.006 Y132.675 E.00981
G1 X114.971 Y132.528 E.00825
G1 X114.971 Y102.216 E1.65614
G1 X115.038 Y101.462 E.04136
G1 X115.064 Y101.409 E.00322
G1 E-.21
;WIPE_START
G1 X115.118 Y101.301 E-.00515
G1 X115.271 Y101.207 E-.00767
G1 X116.971 Y101.205 E-.07267
;WIPE_END
G1 E-.0045
G1 X115.65 Y102.242 Z.6 F21000
G1 Z.2
G1 E.3 F2100
;TYPE:Outer wall
;WIDTH:0.699999
G1 X115.676 Y101.873 E.02018
G1 X124.32 Y101.873 E.47229
G1 X124.35 Y102.246 E.02045
G1 X124.35 Y132.178 E1.63537
G1 X115.65 Y132.178 E.47535
G1 X115.65 Y102.302 E1.63235
G1 X115.712 Y102.202
G1 E-.3
G1 X123.268 Y103.282 Z.6 F21000
G1 X124.15 Y103.408 Z.6
G1 Z.2
G1 E.3 F2100
;TYPE:Bottom surface
;WIDTH:0.704228
G1 F3000
G1 X123.108 Y102.366 E.08101
G1 X122.173 Y102.366 E.05143
G1 X123.854 Y104.047 E.13075
G1 X123.854 Y104.983 E.05143
G1 X121.237 Y102.366 E.20349
G1 X120.302 Y102.366 E.05143
G1 X123.854 Y105.918 E.27623
G1 X123.854 Y106.853 E.05143
G1 X119.367 Y102.366 E.34896
G1 X118.432 Y102.366 E.05143
G1 X123.854 Y107.789 E.4217
G1 X123.854 Y108.724 E.05143
G1 X117.496 Y102.366 E.49444
G1 X116.561 Y102.366 E.05143
G1 X123.855 Y109.659 E.56718
G1 X123.855 Y110.595 E.05143
G1 X116.145 Y102.885 E.59951
G1 X116.145 Y103.821 E.05142
G1 X123.855 Y111.53 E.59953
G1 X123.855 Y112.465 E.05143
G1 X116.145 Y104.756 E.59954
G1 X116.145 Y105.691 E.05142
G1 X123.855 Y113.401 E.59956
G1 X123.855 Y114.336 E.05143
G1 X116.145 Y106.626 E.59957
G1 X116.145 Y107.561 E.05142
G1 X123.855 Y115.271 E.59959
G1 X123.855 Y116.207 E.05143
G1 X116.145 Y108.496 E.59961
M73 P1 R41
G1 X116.145 Y109.431 E.05142
G1 X123.856 Y117.142 E.59962
G1 X123.856 Y118.077 E.05143
G1 X116.145 Y110.367 E.59964
G1 X116.145 Y111.302 E.05142
G1 X123.856 Y119.013 E.59965
G1 X123.856 Y119.948 E.05143
G1 X116.145 Y112.237 E.59967
G1 X116.144 Y113.172 E.05142
G1 X123.856 Y120.883 E.59968
G1 X123.856 Y121.819 E.05143
G1 X116.144 Y114.107 E.5997
G1 X116.144 Y115.042 E.05142
G1 X123.856 Y122.754 E.59972
G1 X123.856 Y123.689 E.05143
G1 X116.144 Y115.977 E.59973
G1 X116.144 Y116.913 E.05142
G1 X123.856 Y124.625 E.59975
G1 X123.857 Y125.56 E.05143
G1 X116.144 Y117.848 E.59976
G1 X116.144 Y118.783 E.05142
G1 X123.857 Y126.496 E.59978
G1 X123.857 Y127.431 E.05143
G1 X116.144 Y119.718 E.59979
G1 X116.144 Y120.653 E.05142
G1 X123.857 Y128.366 E.59981
G1 X123.857 Y129.302 E.05143
G1 X116.144 Y121.588 E.59983
G1 X116.144 Y122.523 E.05142
G1 X123.857 Y130.237 E.59984
G1 X123.857 Y131.172 E.05143
G1 X116.143 Y123.459 E.59986
G1 X116.143 Y124.394 E.05142
G1 X123.435 Y131.685 E.56703
G1 X122.5 Y131.685 E.05143
G1 X116.143 Y125.329 E.49431
G1 X116.143 Y126.264 E.05142
G1 X121.565 Y131.685 E.42159
G1 X120.629 Y131.685 E.05143
G1 X116.143 Y127.199 E.34887
G1 X116.143 Y128.134 E.05142
G1 X119.694 Y131.685 E.27615
G1 X118.759 Y131.685 E.05143
G1 X116.143 Y129.069 E.20343
G1 X116.143 Y130.005 E.05142
G1 X117.824 Y131.685 E.13071
G1 X116.888 Y131.685 E.05143
G1 X115.847 Y130.644 E.08098
; stop printing object temperature_tower.stl id:0 copy 0
EXCLUDE_OBJECT_END NAME=temperature_tower.stl_id_0_copy_0
;LAYER_CHANGE
;Z:0.4
;HEIGHT:0.2
;BEFORE_LAYER_CHANGE
;0.4
G92 E0

M104 S250 ; set nozzle temperature
G1 E-.21 F2100
;WIPE_START
G1 F3000
G1 X116.888 Y131.685 E-.06295
G1 X117.416 Y131.685 E-.02255
;WIPE_END
G1 E-.0045 F2100
;AFTER_LAYER_CHANGE
;0.4
M204 S2500
M140 S80 ; set bed temperature
; printing object temperature_tower.stl id:0 copy 0
EXCLUDE_OBJECT_START NAME=temperature_tower.stl_id_0_copy_0
M204 S7500
G17
G3 Z.6 I1.215 J-.071 P1  F21000
G1 X116.544 Y116.73 Z.6
G1 Z.4
G1 E.3 F2100
M204 S3000
;TYPE:Inner wall
;WIDTH:0.619999
G1 F4641
G1 X116.544 Y102.704 E.67302
G1 X123.456 Y102.704 E.33166
G1 X123.456 Y131.43 E1.3784
G1 X116.544 Y131.43 E.33166
G1 X116.544 Y116.79 E.70251
M204 S2500
M204 S7500
G1 X115.972 Y116.73 F21000
M204 S3000
G1 F4641
G1 X115.976 Y102.127 E.70071
G1 X124.028 Y102.127 E.38636
G1 X124.033 Y102.237 E.00528
G1 X124.033 Y132.007 E1.42851
G1 X115.967 Y132.007 E.38704
G1 X115.972 Y116.79 E.7302
M204 S2500
M204 S7500
G1 X115.4 Y116.73 F21000
M204 S2000
;TYPE:Outer wall
;WIDTH:0.599999
G1 F3399.988
G1 X115.4 Y115.93 E.03706
G1 X115.4 Y103.053 E.59648
G1 F3148.081
G1 X115.4 Y102.253 E.03706
G1 X115.453 Y101.56 E.03219
G1 F3147.69
G1 X116.316 Y101.56 E.03998
G1 X123.674 Y101.56 E.34083
G1 X124.537 Y101.56 E.03998
G1 F3399.988
G1 X124.6 Y102.237 E.0315
G1 X124.6 Y103.037 E.03706
G1 F3000
G1 X124.6 Y131.628 E1.32437
G1 X124.6 Y132.528 E.04169
G1 F2628.671
G1 X124.6 Y132.528
G1 X124.6 Y132.575 E.00218
G1 X123.654 Y132.575 E.04382
G1 X116.346 Y132.575 E.33852
G1 X115.4 Y132.575 E.04382
G1 F3000
G1 X115.4 Y132.528 E.00218
G1 X115.4 Y132.528
G1 F3399.985
G1 X115.4 Y131.628 E.04169
G1 X115.4 Y117.59 E.65026
G1 X115.4 Y116.79 E.03706
M204 S2500
M204 S7500
G1 E-.3 F2100
G1 X118.625 Y123.708 Z.8 F21000
G1 X122.144 Y131.258 Z.8
G1 Z.4
G1 E.3 F2100
M204 S2500
;TYPE:Internal solid infill
;WIDTH:0.606371
G1 F4641
G1 X123.033 Y130.369 E.0589
G1 X123.033 Y129.572 E.03733
G1 X121.598 Y131.008 E.09509
G1 X120.801 Y131.008 E.03733
G1 X123.033 Y128.776 E.14788
G1 X123.033 Y127.979 E.03733
G1 X120.004 Y131.008 E.20068
G1 X119.208 Y131.008 E.03733
G1 X123.033 Y127.182 E.25348
G1 X123.033 Y126.385 E.03733
G1 X118.411 Y131.008 E.30627
G1 X117.614 Y131.008 E.03733
G1 X123.033 Y125.588 E.35907
G1 X123.033 Y124.791 E.03733
G1 X116.967 Y130.858 E.40194
G1 X116.967 Y130.061 E.03733
G1 X123.033 Y123.995 E.40194
G1 X123.033 Y123.198 E.03733
G1 X116.967 Y129.264 E.40194
G1 X116.967 Y128.467 E.03733
G1 X123.033 Y122.401 E.40194
G1 X123.033 Y121.604 E.03733
G1 X116.967 Y127.67 E.40194
G1 X116.967 Y126.873 E.03733
G1 X123.033 Y120.807 E.40194
G1 X123.033 Y120.01 E.03733
G1 X116.967 Y126.077 E.40194
G1 X116.967 Y125.28 E.03733
G1 X123.033 Y119.214 E.40194
G1 X123.033 Y118.417 E.03733
G1 X116.967 Y124.483 E.40194
G1 X116.967 Y123.686 E.03733
G1 X123.033 Y117.62 E.40194
G1 X123.033 Y116.823 E.03733
G1 X116.967 Y122.889 E.40194
G1 X116.967 Y122.092 E.03733
G1 X123.033 Y116.026 E.40194
G1 X123.033 Y115.229 E.03733
G1 X116.967 Y121.296 E.40194
G1 X116.967 Y120.499 E.03733
