; HEADER_BLOCK_START
; generated by OrcaSlicer 1.6.3 on 2023-06-12 at 22:25:08
; total layer number: 7
; HEADER_BLOCK_END

; THUMBNAIL_BLOCK_START
; THUMBNAIL_BLOCK_END

; external perimeters extrusion width = 0.40mm
; perimeters extrusion width = 0.45mm
; infill extrusion width = 0.45mm
; solid infill extrusion width = 0.48mm
; top infill extrusion width = 0.48mm
; first layer extrusion width = 0.50mm

; external perimeters extrusion width = 0.40mm
; perimeters extrusion width = 0.45mm
; infill extrusion width = 0.45mm
; solid infill extrusion width = 0.48mm
; top infill extrusion width = 0.48mm
; first layer extrusion width = 0.50mm

; external perimeters extrusion width = 0.40mm
; perimeters extrusion width = 0.45mm
; infill extrusion width = 0.45mm
; solid infill extrusion width = 0.48mm
; top infill extrusion width = 0.48mm
; first layer extrusion width = 0.50mm

; external perimeters extrusion width = 0.40mm
; perimeters extrusion width = 0.45mm
; infill extrusion width = 0.45mm
; solid infill extrusion width = 0.48mm
; top infill extrusion width = 0.48mm
; first layer extrusion width = 0.50mm

; external perimeters extrusion width = 0.40mm
; perimeters extrusion width = 0.45mm
; infill extrusion width = 0.45mm
; solid infill extrusion width = 0.48mm
; top infill extrusion width = 0.48mm
; first layer extrusion width = 0.50mm

; external perimeters extrusion width = 0.40mm
; perimeters extrusion width = 0.45mm
; infill extrusion width = 0.45mm
; solid infill extrusion width = 0.48mm
; top infill extrusion width = 0.48mm
; first layer extrusion width = 0.50mm

; external perimeters extrusion width = 0.40mm
; perimeters extrusion width = 0.45mm
; infill extrusion width = 0.45mm
; solid infill extrusion width = 0.48mm
; top infill extrusion width = 0.48mm
; first layer extrusion width = 0.50mm

; external perimeters extrusion width = 0.40mm
; perimeters extrusion width = 0.45mm
; infill extrusion width = 0.45mm
; solid infill extrusion width = 0.48mm
; top infill extrusion width = 0.48mm
; first layer extrusion width = 0.50mm

; external perimeters extrusion width = 0.40mm
; perimeters extrusion width = 0.45mm
; infill extrusion width = 0.45mm
; solid infill extrusion width = 0.48mm
; top infill extrusion width = 0.48mm
; first layer extrusion width = 0.50mm

; EXECUTABLE_BLOCK_START
EXCLUDE_OBJECT_DEFINE NAME=flowrate_0_id_0_copy_0 CENTER=117.5,117.5 POLYGON=[[97.5,102.5],[137.5,102.5],[137.5,122.5],[127.5,132.5],[107.5,132.5],[97.5,122.5],[97.5,102.5]]
EXCLUDE_OBJECT_DEFINE NAME=flowrate_10_id_1_copy_0 CENTER=159.5,149.5 POLYGON=[[139.5,134.5],[179.5,134.5],[179.5,154.5],[169.5,164.5],[149.5,164.5],[139.5,154.5],[139.5,134.5]]
EXCLUDE_OBJECT_DEFINE NAME=flowrate_15_id_2_copy_0 CENTER=117.5,149.5 POLYGON=[[97.5,134.5],[137.5,134.5],[137.5,154.5],[127.5,164.5],[107.5,164.5],[97.5,154.5],[97.5,134.5]]
EXCLUDE_OBJECT_DEFINE NAME=flowrate_20_id_3_copy_0 CENTER=75.5,149.5 POLYGON=[[55.5,134.5],[95.5,134.5],[95.5,154.5],[85.5,164.5],[65.5,164.5],[55.5,154.5],[55.5,134.5]]
EXCLUDE_OBJECT_DEFINE NAME=flowrate_5_id_4_copy_0 CENTER=75.5,117.5 POLYGON=[[55.5,102.5],[95.5,102.5],[95.5,122.5],[85.5,132.5],[65.5,132.5],[55.5,122.5],[55.5,102.5]]
EXCLUDE_OBJECT_DEFINE NAME=flowrate_m10_id_5_copy_0 CENTER=159.5,85.5 POLYGON=[[139.5,70.5],[179.5,70.5],[179.5,90.5],[169.5,100.5],[149.5,100.5],[139.5,90.5],[139.5,70.5]]
EXCLUDE_OBJECT_DEFINE NAME=flowrate_m15_id_6_copy_0 CENTER=117.5,85.5 POLYGON=[[97.5,70.5],[137.5,70.5],[137.5,90.5],[127.5,100.5],[107.5,100.5],[97.5,90.5],[97.5,70.5]]
EXCLUDE_OBJECT_DEFINE NAME=flowrate_m20_id_7_copy_0 CENTER=75.5,85.5 POLYGON=[[55.5,70.5],[95.5,70.5],[95.5,90.5],[85.5,100.5],[65.5,100.5],[55.5,90.5],[55.5,70.5]]
EXCLUDE_OBJECT_DEFINE NAME=flowrate_m5_id_8_copy_0 CENTER=159.5,117.5 POLYGON=[[139.5,102.5],[179.5,102.5],[179.5,122.5],[169.5,132.5],[149.5,132.5],[139.5,122.5],[139.5,102.5]]
M73 P0 R59
;TYPE:Custom
G90
G21
M83 ; use relative distances for extrusion
; filament start gcode
M106 S0
;LAYER_CHANGE
;Z:0.2
;HEIGHT:0.2
;BEFORE_LAYER_CHANGE
;0.2
G92 E0

G1 E-.4 F2100
;AFTER_LAYER_CHANGE
;0.2
M204 S500
; printing object flowrate_m20 id:7 copy 0
EXCLUDE_OBJECT_START NAME=flowrate_m20_id_7_copy_0
G1 X65.75 Y90.479 F21000
G1 Z.4
G1 Z.2
G1 E.4 F2100
;TYPE:Outer wall
;WIDTH:0.499999
G1 F1500
G1 X65.684 Y90.318 E.00529
G1 X65.521 Y90.25 E.00535
G1 X55.75 Y90.25 E.2971
G1 X55.75 Y70.75 E.5929
G1 X95.25 Y70.75 E1.201
G1 X95.25 Y80.5 E.29645
G1 X95.25 Y90.25 E.29645
G1 X85.479 Y90.25 E.2971
G1 X85.316 Y90.318 E.00535
G1 X85.25 Y90.479 E.00529
G1 X85.25 Y100.25 E.2971
G1 X65.75 Y100.25 E.5929
G1 X65.75 Y90.539 E.29528
G1 X65.764 Y90.447
G1 E-.4 F2100
G1 X72.208 Y86.356 Z.6 F21000
G1 X95.113 Y71.817 Z.6
M73 P0 R58
G1 Z.2
G1 E.4 F2100
;TYPE:Bottom surface
;WIDTH:0.502876
G1 F2400
G1 X94.388 Y71.093 E.03134
G1 X93.738 Y71.093 E.0199
G1 X94.907 Y72.262 E.05059
G1 X94.907 Y72.912 E.0199
G1 X93.088 Y71.093 E.07874
G1 X92.437 Y71.093 E.0199
G1 X94.907 Y73.563 E.10688
G1 X94.907 Y74.213 E.0199
G1 X91.787 Y71.093 E.13503
G1 X91.136 Y71.093 E.0199
G1 X94.907 Y74.864 E.16317
G1 X94.907 Y75.514 E.0199
G1 X90.486 Y71.093 E.19132
G1 X89.835 Y71.093 E.0199
G1 X94.907 Y76.165 E.21947
G1 X94.907 Y76.815 E.0199
G1 X89.185 Y71.093 E.24761
G1 X88.534 Y71.093 E.0199
G1 X94.907 Y77.466 E.27576
G1 X94.907 Y78.116 E.0199
G1 X87.884 Y71.093 E.3039
G1 X87.233 Y71.093 E.0199
G1 X94.907 Y78.767 E.33205
G1 X94.907 Y79.417 E.0199
G1 X86.583 Y71.093 E.3602
G1 X85.932 Y71.093 E.0199
G1 X94.907 Y80.068 E.38834
G1 X94.907 Y80.718 E.0199
G1 X85.282 Y71.093 E.41649
G1 X84.631 Y71.093 E.0199
G1 X94.907 Y81.369 E.44463
G1 X94.907 Y82.019 E.0199
G1 X83.981 Y71.093 E.47278
G1 X83.33 Y71.093 E.0199
G1 X94.907 Y82.67 E.50093
G1 X94.907 Y83.32 E.0199
G1 X82.68 Y71.093 E.52907
G1 X82.029 Y71.093 E.0199
G1 X94.907 Y83.971 E.55722
G1 X94.907 Y84.621 E.0199
G1 X81.379 Y71.093 E.58536
G1 X80.729 Y71.093 E.0199
G1 X94.907 Y85.271 E.61351
G1 X94.907 Y85.922 E.0199
G1 X80.078 Y71.093 E.64166
G1 X79.428 Y71.093 E.0199
G1 X94.907 Y86.572 E.6698
G1 X94.907 Y87.223 E.0199
G1 X78.777 Y71.093 E.69795
G1 X78.127 Y71.093 E.0199
G1 X94.907 Y87.873 E.72609
G1 X94.907 Y88.524 E.0199
G1 X77.476 Y71.093 E.75424
G1 X76.826 Y71.093 E.0199
G1 X94.907 Y89.174 E.78239
G1 X94.907 Y89.825 E.0199
G1 X76.175 Y71.093 E.81053
G1 X75.525 Y71.093 E.0199
G1 X94.339 Y89.907 E.8141
G1 X93.689 Y89.907 E.0199
G1 X74.874 Y71.093 E.8141
G1 X74.224 Y71.093 E.0199
G1 X93.038 Y89.907 E.8141
G1 X92.388 Y89.907 E.0199
G1 X73.573 Y71.093 E.8141
G1 X72.923 Y71.093 E.0199
G1 X91.737 Y89.907 E.8141
G1 X91.087 Y89.907 E.0199
G1 X72.272 Y71.093 E.8141
G1 X71.622 Y71.093 E.0199
G1 X90.436 Y89.907 E.8141
G1 X89.786 Y89.907 E.0199
G1 X70.971 Y71.093 E.8141
G1 X70.321 Y71.093 E.0199
G1 X89.135 Y89.907 E.8141
G1 X88.485 Y89.907 E.0199
G1 X69.67 Y71.093 E.8141
G1 X69.02 Y71.093 E.0199
G1 X87.834 Y89.907 E.8141
G1 X87.184 Y89.907 E.0199
G1 X68.369 Y71.093 E.8141
G1 X67.719 Y71.093 E.0199
G1 X86.533 Y89.907 E.8141
G1 X85.883 Y89.907 E.0199
G1 X67.069 Y71.093 E.8141
G1 X66.418 Y71.093 E.0199
G1 X85.273 Y89.948 E.81584
G1 X85.25 Y89.952 E.0007
G2 X84.945 Y90.271 I.223 J.519 E.01386
G1 X65.768 Y71.093 E.82982
G1 X65.117 Y71.093 E.0199
G1 X84.907 Y90.883 E.85632
G1 X84.907 Y91.533 E.0199
G1 X64.467 Y71.093 E.88446
G1 X63.816 Y71.093 E.0199
G1 X84.907 Y92.184 E.91261
G1 X84.907 Y92.834 E.0199
G1 X63.166 Y71.093 E.94075
G1 X62.515 Y71.093 E.0199
G1 X84.907 Y93.485 E.9689
M73 P1 R58
G1 X84.907 Y94.135 E.0199
G1 X61.865 Y71.093 E.99705
G1 X61.214 Y71.093 E.0199
G1 X84.907 Y94.786 E1.02519
G1 X84.907 Y95.436 E.0199
G1 X60.564 Y71.093 E1.05334
G1 X59.913 Y71.093 E.0199
G1 X84.907 Y96.087 E1.08148
G1 X84.907 Y96.737 E.0199
G1 X59.263 Y71.093 E1.10963
G1 X58.612 Y71.093 E.0199
G1 X84.907 Y97.388 E1.13778
G1 X84.907 Y98.038 E.0199
G1 X57.962 Y71.093 E1.16592
G1 X57.311 Y71.093 E.0199
G1 X84.907 Y98.689 E1.19407
G1 X84.907 Y99.339 E.0199
G1 X56.661 Y71.093 E1.22221
G1 X56.093 Y71.093 E.01738
G1 X56.093 Y71.175 E.00252
G1 X84.825 Y99.907 E1.24323
G1 X84.174 Y99.907 E.0199
G1 X56.093 Y71.826 E1.21508
G1 X56.093 Y72.476 E.0199
G1 X83.524 Y99.907 E1.18694
G1 X82.873 Y99.907 E.0199
G1 X56.093 Y73.127 E1.15879
G1 X56.093 Y73.777 E.0199
G1 X82.223 Y99.907 E1.13065
G1 X81.572 Y99.907 E.0199
G1 X56.093 Y74.428 E1.1025
G1 X56.093 Y75.078 E.0199
G1 X80.922 Y99.907 E1.07435
G1 X80.271 Y99.907 E.0199
G1 X56.093 Y75.729 E1.04621
G1 X56.093 Y76.379 E.0199
G1 X79.621 Y99.907 E1.01806
G1 X78.971 Y99.907 E.0199
G1 X56.093 Y77.029 E.98992
G1 X56.093 Y77.68 E.0199
G1 X78.32 Y99.907 E.96177
G1 X77.67 Y99.907 E.0199
G1 X56.093 Y78.33 E.93362
G1 X56.093 Y78.981 E.0199
G1 X77.019 Y99.907 E.90548
G1 X76.369 Y99.907 E.0199
G1 X56.093 Y79.631 E.87733
G1 X56.093 Y80.282 E.0199
G1 X75.718 Y99.907 E.84919
G1 X75.068 Y99.907 E.0199
G1 X66.093 Y90.932 E.38834
G1 X66.093 Y91.583 E.0199
G1 X74.417 Y99.907 E.3602
G1 X73.767 Y99.907 E.0199
G1 X66.093 Y92.233 E.33205
G1 X66.093 Y92.884 E.0199
G1 X73.116 Y99.907 E.3039
G1 X72.466 Y99.907 E.0199
G1 X66.093 Y93.534 E.27576
G1 X66.093 Y94.185 E.0199
G1 X71.815 Y99.907 E.24761
G1 X71.165 Y99.907 E.0199
G1 X66.093 Y94.835 E.21947
G1 X66.093 Y95.486 E.0199
G1 X70.514 Y99.907 E.19132
G1 X69.864 Y99.907 E.0199
G1 X66.093 Y96.136 E.16317
G1 X66.093 Y96.787 E.0199
G1 X69.213 Y99.907 E.13503
G1 X68.563 Y99.907 E.0199
G1 X66.093 Y97.437 E.10688
G1 X66.093 Y98.088 E.0199
G1 X67.912 Y99.907 E.07874
G1 X67.262 Y99.907 E.0199
G1 X66.093 Y98.738 E.05059
G1 X66.093 Y99.389 E.0199
G1 X66.817 Y100.113 E.03134
G1 E-.28 F2100
;WIPE_START
G1 F2400
G1 X66.093 Y99.389 E-.05839
G1 X66.093 Y98.738 E-.03708
G1 X66.323 Y98.968 E-.01853
;WIPE_END
G1 E-.006 F2100
G1 X66.208 Y91.336 Z.6 F21000
G1 X66.186 Y89.814 Z.6
G1 X65.273 Y89.814
G1 X65.273 Y90.113
G1 Z.2
G1 E.4 F2100
G1 F2400
G1 X56.093 Y80.932 E.39724
G1 X56.093 Y81.583 E.0199
G1 X64.417 Y89.907 E.3602
G1 X63.767 Y89.907 E.0199
G1 X56.093 Y82.233 E.33205
G1 X56.093 Y82.884 E.0199
G1 X63.116 Y89.907 E.3039
G1 X62.466 Y89.907 E.0199
G1 X56.093 Y83.534 E.27576
G1 X56.093 Y84.185 E.0199
G1 X61.815 Y89.907 E.24761
G1 X61.165 Y89.907 E.0199
G1 X56.093 Y84.835 E.21947
G1 X56.093 Y85.486 E.0199
G1 X60.514 Y89.907 E.19132
G1 X59.864 Y89.907 E.0199
G1 X56.093 Y86.136 E.16317
G1 X56.093 Y86.787 E.0199
G1 X59.213 Y89.907 E.13503
G1 X58.563 Y89.907 E.0199
G1 X56.093 Y87.437 E.10688
G1 X56.093 Y88.088 E.0199
G1 X57.912 Y89.907 E.07874
G1 X57.262 Y89.907 E.0199
G1 X56.093 Y88.738 E.05059
G1 X56.093 Y89.389 E.0199
G1 X56.817 Y90.113 E.03134
; stop printing object flowrate_m20 id:7 copy 0
EXCLUDE_OBJECT_END NAME=flowrate_m20_id_7_copy_0
; printing object flowrate_5 id:4 copy 0
EXCLUDE_OBJECT_START NAME=flowrate_5_id_4_copy_0
G1 E-.28 F2100
;WIPE_START
G1 F2400
G1 X56.093 Y89.389 E-.05839
G1 X56.093 Y88.738 E-.03708
G1 X56.323 Y88.968 E-.01853
;WIPE_END
G1 E-.006 F2100
G1 X58.39 Y96.315 Z.6 F21000
G1 X65.75 Y122.479 Z.6
M73 P1 R57
G1 Z.2
G1 E.4 F2100
;TYPE:Outer wall
;WIDTH:0.499999
G1 F1500
G1 X65.684 Y122.318 E.00695
G1 X65.521 Y122.25 E.00702
G1 X55.75 Y122.25 E.38995
G1 X55.75 Y102.75 E.77818
G1 X95.25 Y102.75 E1.57631
G1 X95.25 Y112.5 E.38909
G1 X95.25 Y122.25 E.38909
M73 P2 R57
G1 X85.479 Y122.25 E.38995
G1 X85.316 Y122.318 E.00702
G1 X85.25 Y122.479 E.00695
G1 X85.25 Y132.25 E.38995
G1 X65.75 Y132.25 E.77818
G1 X65.75 Y122.539 E.38755
G1 X65.764 Y122.447
G1 E-.4 F2100
G1 X72.208 Y118.356 Z.6 F21000
G1 X95.113 Y103.817 Z.6
G1 Z.2
G1 E.4 F2100
;TYPE:Bottom surface
;WIDTH:0.502876
G1 F2400
G1 X94.388 Y103.093 E.04114
G1 X93.738 Y103.093 E.02612
G1 X94.907 Y104.262 E.0664
G1 X94.907 Y104.912 E.02612
G1 X93.088 Y103.093 E.10334
G1 X92.437 Y103.093 E.02612
G1 X94.907 Y105.563 E.14028
G1 X94.907 Y106.213 E.02612
G1 X91.787 Y103.093 E.17722
G1 X91.136 Y103.093 E.02612
G1 X94.907 Y106.864 E.21417
G1 X94.907 Y107.514 E.02612
G1 X90.486 Y103.093 E.25111
G1 X89.835 Y103.093 E.02612
G1 X94.907 Y108.165 E.28805
G1 X94.907 Y108.815 E.02612
G1 X89.185 Y103.093 E.32499
G1 X88.534 Y103.093 E.02612
G1 X94.907 Y109.466 E.36193
G1 X94.907 Y110.116 E.02612
G1 X87.884 Y103.093 E.39887
G1 X87.233 Y103.093 E.02612
G1 X94.907 Y110.767 E.43582
G1 X94.907 Y111.417 E.02612
G1 X86.583 Y103.093 E.47276
G1 X85.932 Y103.093 E.02612
G1 X94.907 Y112.068 E.5097
G1 X94.907 Y112.718 E.02612
G1 X85.282 Y103.093 E.54664
G1 X84.631 Y103.093 E.02612
G1 X94.907 Y113.369 E.58358
G1 X94.907 Y114.019 E.02612
G1 X83.981 Y103.093 E.62052
G1 X83.33 Y103.093 E.02612
G1 X94.907 Y114.67 E.65747
G1 X94.907 Y115.32 E.02612
G1 X82.68 Y103.093 E.69441
G1 X82.029 Y103.093 E.02612
G1 X94.907 Y115.971 E.73135
G1 X94.907 Y116.621 E.02612
G1 X81.379 Y103.093 E.76829
G1 X80.729 Y103.093 E.02612
G1 X94.907 Y117.271 E.80523
G1 X94.907 Y117.922 E.02612
G1 X80.078 Y103.093 E.84217
G1 X79.428 Y103.093 E.02612
G1 X94.907 Y118.572 E.87912
G1 X94.907 Y119.223 E.02612
G1 X78.777 Y103.093 E.91606
G1 X78.127 Y103.093 E.02612
G1 X94.907 Y119.873 E.953
G1 X94.907 Y120.524 E.02612
G1 X77.476 Y103.093 E.98994
G1 X76.826 Y103.093 E.02612
G1 X94.907 Y121.174 E1.02688
G1 X94.907 Y121.825 E.02612
G1 X76.175 Y103.093 E1.06382
G1 X75.525 Y103.093 E.02612
G1 X94.339 Y121.907 E1.0685
G1 X93.689 Y121.907 E.02612
G1 X74.874 Y103.093 E1.0685
G1 X74.224 Y103.093 E.02612
G1 X93.038 Y121.907 E1.0685
G1 X92.388 Y121.907 E.02612
G1 X73.573 Y103.093 E1.0685
G1 X72.923 Y103.093 E.02612
G1 X91.737 Y121.907 E1.0685
G1 X91.087 Y121.907 E.02612
G1 X72.272 Y103.093 E1.0685
G1 X71.622 Y103.093 E.02612
G1 X90.436 Y121.907 E1.0685
G1 X89.786 Y121.907 E.02612
G1 X70.971 Y103.093 E1.0685
G1 X70.321 Y103.093 E.02612
G1 X89.135 Y121.907 E1.0685
G1 X88.485 Y121.907 E.02612
G1 X69.67 Y103.093 E1.0685
G1 X69.02 Y103.093 E.02612
G1 X87.834 Y121.907 E1.0685
G1 X87.184 Y121.907 E.02612
G1 X68.369 Y103.093 E1.0685
G1 X67.719 Y103.093 E.02612
G1 X86.533 Y121.907 E1.0685
G1 X85.883 Y121.907 E.02612
G1 X67.069 Y103.093 E1.0685
G1 X66.418 Y103.093 E.02612
G1 X85.273 Y121.948 E1.0708
G1 X85.25 Y121.952 E.00092
G2 X84.945 Y122.271 I.223 J.519 E.01819
G1 X65.768 Y103.093 E1.08914
G1 X65.117 Y103.093 E.02612
G1 X84.907 Y122.883 E1.12391
G1 X84.907 Y123.533 E.02612
G1 X64.467 Y103.093 E1.16086
G1 X63.816 Y103.093 E.02612
G1 X84.907 Y124.184 E1.1978
G1 X84.907 Y124.834 E.02612
G1 X63.166 Y103.093 E1.23474
G1 X62.515 Y103.093 E.02612
G1 X84.907 Y125.485 E1.27168
G1 X84.907 Y126.135 E.02612
G1 X61.865 Y103.093 E1.30862
G1 X61.214 Y103.093 E.02612
G1 X84.907 Y126.786 E1.34556
G1 X84.907 Y127.436 E.02612
G1 X60.564 Y103.093 E1.38251
G1 X59.913 Y103.093 E.02612
G1 X84.907 Y128.087 E1.41945
G1 X84.907 Y128.737 E.02612
G1 X59.263 Y103.093 E1.45639
M73 P3 R57
G1 X58.612 Y103.093 E.02612
G1 X84.907 Y129.388 E1.49333
G1 X84.907 Y130.038 E.02612
G1 X57.962 Y103.093 E1.53027
G1 X57.311 Y103.093 E.02612
G1 X84.907 Y130.689 E1.56721
G1 X84.907 Y131.339 E.02612
G1 X56.661 Y103.093 E1.60415
G1 X56.093 Y103.093 E.02281
G1 X56.093 Y103.175 E.00331
G1 X84.825 Y131.907 E1.63174
G1 X84.174 Y131.907 E.02612
G1 X56.093 Y103.826 E1.5948
G1 X56.093 Y104.476 E.02612
G1 X83.524 Y131.907 E1.55786
G1 X82.873 Y131.907 E.02612
G1 X56.093 Y105.127 E1.52091
G1 X56.093 Y105.777 E.02612
G1 X82.223 Y131.907 E1.48397
G1 X81.572 Y131.907 E.02612
G1 X56.093 Y106.428 E1.44703
G1 X56.093 Y107.078 E.02612
G1 X80.922 Y131.907 E1.41009
G1 X80.271 Y131.907 E.02612
G1 X56.093 Y107.729 E1.37315
G1 X56.093 Y108.379 E.02612
G1 X79.621 Y131.907 E1.33621
G1 X78.971 Y131.907 E.02612
G1 X56.093 Y109.029 E1.29926
G1 X56.093 Y109.68 E.02612
G1 X78.32 Y131.907 E1.26232
G1 X77.67 Y131.907 E.02612
G1 X56.093 Y110.33 E1.22538
G1 X56.093 Y110.981 E.02612
G1 X77.019 Y131.907 E1.18844
G1 X76.369 Y131.907 E.02612
G1 X56.093 Y111.631 E1.1515
G1 X56.093 Y112.282 E.02612
G1 X75.718 Y131.907 E1.11456
G1 X75.068 Y131.907 E.02612
G1 X66.093 Y122.932 E.5097
G1 X66.093 Y123.583 E.02612
G1 X74.417 Y131.907 E.47276
G1 X73.767 Y131.907 E.02612
G1 X66.093 Y124.233 E.43582
G1 X66.093 Y124.884 E.02612
G1 X73.116 Y131.907 E.39887
G1 X72.466 Y131.907 E.02612
G1 X66.093 Y125.534 E.36193
M73 P3 R56
G1 X66.093 Y126.185 E.02612
G1 X71.815 Y131.907 E.32499
