; HEADER_BLOCK_START
; generated by OrcaSlicer 1.6.3 on 2023-06-12 at 22:24:31
; total layer number: 450
; HEADER_BLOCK_END

; THUMBNAIL_BLOCK_START
; THUMBNAIL_BLOCK_END

; external perimeters extrusion width = 0.40mm
; perimeters extrusion width = 0.45mm
; infill extrusion width = 0.45mm
; solid infill extrusion width = 0.40mm
; top infill extrusion width = 0.40mm
; first layer extrusion width = 0.50mm

; EXECUTABLE_BLOCK_START
EXCLUDE_OBJECT_DEFINE NAME=temperature_tower.stl_id_0_copy_0 CENTER=120,120 POLYGON=[[115,102.215],[115.002,102.105],[115.006,102.005],[115.011,101.919],[115.016,101.855],[115.016,101.846],[115.021,101.79],[115.025,101.749],[115.028,101.724],[115.03,101.702],[115.032,101.686],[115.035,101.664],[115.038,101.636],[115.042,101.604],[115.047,101.568],[115.053,101.527],[115.057,101.497],[115.062,101.465],[115.078,101.373],[115.11,101.208],[115.124,101.143],[115.17,100.96],[115.195,100.867],[115.25,100.691],[115.267,100.639],[115.296,100.556],[115.321,100.489],[115.336,100.45],[115.381,100.337],[115.389,100.316],[115.418,100.248],[115.423,100.238],[115.433,100.215],[115.507,100.057],[115.529,100.013],[115.624,99.8325],[115.668,99.7535],[115.745,99.625],[115.836,99.4833],[115.998,99.254],[116.257,98.9366],[116.516,98.6661],[116.704,98.4924],[116.772,98.4342],[117.017,98.2403],[117.18,98.1228],[117.238,98.0838],[117.383,97.991],[117.427,97.9643],[117.555,97.89],[117.582,97.8748],[117.63,97.849],[117.694,97.8149],[117.704,97.81],[117.746,97.7883],[117.783,97.7699],[117.803,97.7598],[117.811,97.7562],[122.19,97.7566],[122.208,97.7654],[122.237,97.78],[122.282,97.8027],[122.342,97.8339],[122.344,97.8351],[122.42,97.8759],[122.508,97.9263],[122.597,97.9789],[122.72,98.0567],[122.794,98.105],[122.962,98.2233],[123.006,98.2558],[123.218,98.4252],[123.465,98.6468],[123.484,98.6657],[123.75,98.9446],[123.9,99.1233],[124.008,99.2618],[124.25,99.6175],[124.258,99.6308],[124.379,99.8381],[124.394,99.865],[124.495,100.061],[124.518,100.109],[124.567,100.215],[124.577,100.238],[124.582,100.248],[124.611,100.316],[124.619,100.337],[124.664,100.45],[124.676,100.481],[124.699,100.542],[124.704,100.556],[124.733,100.639],[124.746,100.68],[124.762,100.727],[124.811,100.888],[124.83,100.96],[124.876,101.143],[124.89,101.208],[124.922,101.373],[124.938,101.465],[124.943,101.497],[124.947,101.527],[124.953,101.568],[124.958,101.604],[124.962,101.636],[124.965,101.664],[124.968,101.686],[124.97,101.702],[124.972,101.724],[124.975,101.749],[124.979,101.79],[124.984,101.846],[124.984,101.855],[124.989,101.919],[124.994,102.005],[124.998,102.105],[125,102.215],[125,132.986],[125,142.244],[115,142.244],[115,102.215]]
M73 P0 R100
;TYPE:Custom
START_PRINT EXTRUDER_TEMP=250 BED_TEMP=35 AREA_START=110.729,96.9522 AREA_END=129.271,137.099
G90
G21
M83 ; use relative distances for extrusion
; filament start gcode
M106 S0
;LAYER_CHANGE
;Z:0.2
;HEIGHT:0.2
;BEFORE_LAYER_CHANGE
;0.2
G92 E0

M104 S250 ; set nozzle temperature
G1 E-.4 F2100
;AFTER_LAYER_CHANGE
;0.2
M204 S500
; printing object temperature_tower.stl id:0 copy 0
EXCLUDE_OBJECT_START NAME=temperature_tower.stl_id_0_copy_0
G1 X112.27 Y98.474 F21000
G1 Z.4
G1 Z.2
G1 E.4 F2100
;TYPE:Brim
;WIDTH:0.5
G1 F1500
G1 X112.754 Y98.051 E.02439
G1 X113.294 Y97.705 E.02439
G1 X113.879 Y97.442 E.02439
G1 X114.494 Y97.269 E.02428
G1 X115.372 Y97.181 E.03355
G1 X122.116 Y97.181 E.25631
G1 X124.631 Y97.181 E.09558
G1 X125.279 Y97.229 E.02471
G1 X125.905 Y97.37 E.02439
G1 X126.504 Y97.602 E.02439
G1 X127.061 Y97.92 E.02439
G1 X127.566 Y98.316 E.02439
G1 X128.007 Y98.783 E.02439
G1 X128.374 Y99.309 E.02439
G1 X128.658 Y99.881 E.02428
G1 X128.907 Y100.722 E.03335
G1 X128.997 Y101.356 E.02433
G1 X129.042 Y102.222 E.03295
G1 X129.042 Y132.52 E1.1515
G1 X128.994 Y133.168 E.02471
G1 X128.853 Y133.794 E.02439
G1 X128.621 Y134.392 E.02439
G1 X128.303 Y134.95 E.02439
G1 X127.907 Y135.455 E.02439
G1 X127.441 Y135.896 E.02439
G1 X126.914 Y136.263 E.02439
G1 X126.34 Y136.548 E.02439
G1 X125.729 Y136.746 E.02439
G1 X125.093 Y136.852 E.02451
G1 X124.695 Y136.87 E.01514
G1 X115.308 Y136.87 E.35675
G1 X114.66 Y136.822 E.02471
G1 X114.034 Y136.681 E.02439
G1 X113.436 Y136.449 E.02439
G1 X112.878 Y136.131 E.02439
G1 X112.373 Y135.735 E.02439
G1 X111.932 Y135.269 E.02439
G1 X111.565 Y134.742 E.02439
G1 X111.28 Y134.168 E.02439
G1 X111.082 Y133.557 E.02439
G1 X110.976 Y132.921 E.02451
G1 X110.958 Y132.523 E.01514
G1 X110.958 Y102.221 E1.15168
G1 X110.985 Y101.549 E.02556
G1 X111.077 Y100.808 E.02836
G1 X111.261 Y100.095 E.02799
G1 X111.515 Y99.507 E.02435
G1 X111.855 Y98.962 E.02439
G1 X112.231 Y98.519 E.02211
G1 X112.58 Y98.817 F21000
G1 F1500
G1 X112.604 Y98.789 E.00142
G1 X113.037 Y98.412 E.02181
G1 X113.521 Y98.104 E.02181
G1 X114.045 Y97.87 E.02181
G1 X114.591 Y97.719 E.02153
G1 X115.402 Y97.638 E.03097
G1 X122.116 Y97.638 E.25518
G1 X124.609 Y97.638 E.09474
G1 X125.202 Y97.682 E.02259
G1 X125.781 Y97.812 E.02258
G1 X126.316 Y98.021 E.02181
G1 X126.814 Y98.306 E.02181
G1 X127.249 Y98.648 E.02104
G1 X127.657 Y99.08 E.02258
G1 X127.974 Y99.534 E.02104
G1 X128.226 Y100.038 E.0214
G1 X128.46 Y100.83 E.03139
G1 X128.542 Y101.407 E.02214
G1 X128.585 Y102.238 E.03162
G1 X128.585 Y132.498 E1.15008
G1 X128.539 Y133.11 E.02336
G1 X128.411 Y133.67 E.02181
G1 X128.202 Y134.204 E.02181
G1 X127.917 Y134.702 E.02181
G1 X127.561 Y135.153 E.02181
G1 X127.143 Y135.546 E.02181
G1 X126.671 Y135.873 E.02181
G1 X126.157 Y136.127 E.02181
G1 X125.61 Y136.302 E.02181
G1 X125.053 Y136.395 E.02149
G1 X124.681 Y136.413 E.01413
G1 X115.33 Y136.413 E.3554
G1 X114.718 Y136.367 E.02336
G1 X114.158 Y136.239 E.02181
G1 X113.624 Y136.03 E.02181
G1 X113.126 Y135.745 E.02181
G1 X112.69 Y135.403 E.02104
G1 X112.295 Y134.987 E.02181
G1 X111.965 Y134.517 E.02181
G1 X111.701 Y133.985 E.02258
G1 X111.526 Y133.438 E.02181
G1 X111.431 Y132.864 E.02211
G1 X111.415 Y132.509 E.01351
G1 X111.415 Y102.233 E1.15069
G1 X111.442 Y101.581 E.02481
G1 X111.529 Y100.885 E.02665
G1 X111.699 Y100.234 E.02557
G1 X111.927 Y99.711 E.02167
G1 X112.231 Y99.225 E.02181
G1 X112.541 Y98.863 E.01811
G1 X112.888 Y99.162 F21000
G1 F1500
G1 X112.937 Y99.105 E.00285
G1 X113.32 Y98.774 E.01923
G1 X113.748 Y98.503 E.01923
G1 X114.21 Y98.299 E.01923
G1 X114.687 Y98.168 E.0188
G1 X115.432 Y98.095 E.02842
G1 X122.116 Y98.095 E.25406
G1 X124.587 Y98.095 E.09391
G1 X125.124 Y98.134 E.02046
G1 X125.637 Y98.248 E.01997
G1 X126.127 Y98.44 E.01998
G1 X126.549 Y98.682 E.01849
G1 X126.932 Y98.981 E.01848
G1 X127.307 Y99.378 E.02077
G1 X127.584 Y99.778 E.01848
G1 X127.794 Y100.196 E.01776
G1 X128.014 Y100.937 E.02941
G1 X128.087 Y101.457 E.01994
G1 X128.128 Y102.253 E.0303
G1 X128.128 Y132.475 E1.14863
G1 X128.083 Y133.052 E.02198
G1 X127.969 Y133.545 E.01922
G1 X127.784 Y134.015 E.01923
G1 X127.531 Y134.454 E.01923
G1 X127.216 Y134.85 E.01923
G1 X126.846 Y135.195 E.01923
G1 X126.43 Y135.483 E.01923
G1 X125.975 Y135.705 E.01923
G1 X125.493 Y135.859 E.01925
G1 X125.012 Y135.939 E.01852
G1 X124.667 Y135.956 E.01313
G1 X115.353 Y135.956 E.354
G1 X114.776 Y135.911 E.02198
G1 X114.283 Y135.797 E.01922
G1 X113.813 Y135.612 E.01923
G1 X113.374 Y135.359 E.01925
G1 X112.992 Y135.057 E.01851
G1 X112.657 Y134.704 E.01849
G1 X112.365 Y134.291 E.0192
G1 X112.13 Y133.822 E.01995
G1 X111.969 Y133.321 E.01999
G1 X111.886 Y132.809 E.01972
G1 X111.872 Y132.496 E.0119
G1 X111.872 Y102.245 E1.14971
G1 X111.899 Y101.613 E.02405
G1 X111.981 Y100.963 E.02492
G1 X112.136 Y100.374 E.02315
G1 X112.337 Y99.917 E.01899
G1 X112.607 Y99.489 E.01923
G1 X112.849 Y99.207 E.0141
G1 X113.197 Y99.504 F21000
G1 F1500
G1 X113.255 Y99.436 E.00339
G1 X113.586 Y99.149 E.01665
G1 X113.955 Y98.913 E.01665
G1 X114.354 Y98.735 E.01662
G1 X114.759 Y98.622 E.01598
G1 X115.461 Y98.552 E.02679
G1 X122.116 Y98.552 E.25294
G1 X124.566 Y98.552 E.09309
G1 X125.047 Y98.587 E.01836
G1 X125.493 Y98.685 E.01734
G1 X125.919 Y98.849 E.01737
G1 X126.285 Y99.057 E.01598
G1 X126.615 Y99.313 E.0159
G1 X126.957 Y99.675 E.01892
G1 X127.185 Y100.003 E.01516
G1 X127.361 Y100.353 E.01491
G1 X127.567 Y101.045 E.02742
G1 X127.632 Y101.507 E.01772
G1 X127.671 Y102.268 E.029
G1 X127.671 Y132.452 E1.14717
G1 X127.628 Y132.992 E.02059
G1 X127.528 Y133.418 E.01662
G1 X127.366 Y133.825 E.01665
G1 X127.145 Y134.204 E.01665
G1 X126.872 Y134.546 E.01665
G1 X126.551 Y134.844 E.01665
G1 X126.189 Y135.092 E.01665
G1 X125.795 Y135.283 E.01665
G1 X125.376 Y135.415 E.0167
G1 X124.971 Y135.482 E.0156
G1 X124.652 Y135.499 E.01212
G1 X115.376 Y135.499 E.35256
G1 X114.836 Y135.456 E.02059
G1 X114.41 Y135.356 E.01662
G1 X114.003 Y135.194 E.01665
G1 X113.623 Y134.973 E.01669
G1 X113.308 Y134.724 E.01525
G1 X113.018 Y134.42 E.01598
G1 X112.754 Y134.046 E.01739
G1 X112.551 Y133.638 E.01731
G1 X112.413 Y133.203 E.01734
G1 X112.341 Y132.747 E.01755
G1 X112.329 Y102.258 E1.15878
G1 X112.355 Y101.646 E.02328
G1 X112.433 Y101.042 E.02317
G1 X112.566 Y100.535 E.01989
G1 X112.738 Y100.141 E.01635
G1 X112.97 Y99.77 E.01665
G1 X113.158 Y99.55 E.01098
G1 X113.507 Y99.846 F21000
G1 F1500
G1 X113.574 Y99.767 E.00393
G1 X113.852 Y99.523 E.01407
G1 X114.164 Y99.322 E.01407
G1 X114.5 Y99.17 E.01402
G1 X114.833 Y99.076 E.01313
G1 X115.491 Y99.009 E.02514
G1 X122.116 Y99.009 E.25181
G1 X124.554 Y99.01 E.09266
G1 X124.991 Y99.042 E.01667
G1 X125.351 Y99.121 E.01398
G1 X125.713 Y99.26 E.01476
G1 X126.022 Y99.433 E.01346
G1 X126.299 Y99.647 E.01328
G1 X126.607 Y99.973 E.01705
G1 X126.785 Y100.23 E.01189
G1 X126.929 Y100.512 E.01205
G1 X127.121 Y101.152 E.02541
G1 X127.177 Y101.556 E.01548
G1 X127.214 Y102.284 E.0277
G1 X127.214 Y132.428 E1.14568
G1 X127.173 Y132.931 E.01918
G1 X127.087 Y133.29 E.01401
G1 X126.949 Y133.633 E.01407
G1 X126.761 Y133.953 E.01407
G1 X126.529 Y134.241 E.01407
G1 X126.256 Y134.492 E.01407
G1 X125.95 Y134.7 E.01407
G1 X125.616 Y134.86 E.01408
G1 X125.259 Y134.971 E.01418
G1 X124.928 Y135.026 E.01275
G1 X124.637 Y135.042 E.01111
G1 X115.4 Y135.042 E.35106
G1 X114.897 Y135.001 E.01918
G1 X114.538 Y134.915 E.01401
G1 X114.195 Y134.776 E.01408
G1 X113.874 Y134.588 E.01415
G1 X113.61 Y134.378 E.0128
G1 X113.379 Y134.136 E.01273
G1 X113.154 Y133.82 E.01474
G1 X112.981 Y133.476 E.01464
G1 X112.858 Y133.088 E.01549
G1 X112.798 Y132.7 E.0149
G1 X112.786 Y102.271 E1.15651
G1 X112.812 Y101.68 E.02249
G1 X112.885 Y101.121 E.02142
G1 X112.997 Y100.696 E.0167
G1 X113.14 Y100.364 E.01373
G1 X113.335 Y100.049 E.01407
G1 X113.468 Y99.891 E.00786
G1 X113.818 Y100.203 F21000
G1 F1500
G1 X113.975 Y100.027 E.00897
G1 X114.313 Y99.776 E.01598
G1 X114.704 Y99.598 E.01633
G1 X115.194 Y99.487 E.0191
G1 X124.821 Y99.49 E.36588
G1 X125.389 Y99.627 E.02222
G1 X125.656 Y99.753 E.01119
G1 X125.967 Y99.973 E.0145
G1 X126.182 Y100.193 E.01166
G1 X126.37 Y100.454 E.01223
G1 X126.587 Y100.925 E.0197
G1 X126.623 Y101.043 E.00471
G1 X126.728 Y101.666 E.02401
G1 X126.757 Y102.229 E.02144
G1 X126.757 Y132.477 E1.14961
G1 X126.597 Y133.275 E.03093
G1 X126.471 Y133.544 E.01128
G1 X126.333 Y133.756 E.00961
G1 X126.167 Y133.951 E.00975
G1 X125.927 Y134.154 E.01193
G1 X125.427 Y134.421 E.02154
G1 X125.239 Y134.489 E.00762
G1 X124.649 Y134.585 E.0227
G1 X115.119 Y134.561 E.36221
G1 X114.55 Y134.424 E.02223
G1 X114.285 Y134.3 E.01111
G1 X114.002 Y134.107 E.01302
G1 X113.819 Y133.933 E.00959
G1 X113.608 Y133.653 E.01334
G1 X113.407 Y133.257 E.01688
G1 X113.339 Y133.067 E.00768
G1 X113.243 Y132.477 E.02268
G1 X113.247 Y102.144 E1.15287
G1 X113.341 Y101.191 E.03638
G1 X113.507 Y100.675 E.02063
G1 X113.726 Y100.306 E.01628
G1 X113.779 Y100.248 E.00299
G1 X114.12 Y100.551 F21000
G1 F1500
G1 X114.326 Y100.32 E.01178
G1 X114.578 Y100.147 E.01162
G1 X114.892 Y100.014 E.01293
G1 X115.296 Y99.933 E.01569
G1 X124.716 Y99.935 E.35801
G1 X125.196 Y100.041 E.01868
G1 X125.398 Y100.13 E.00837
G1 X125.632 Y100.285 E.01067
G1 X125.862 Y100.52 E.01252
G1 X125.997 Y100.718 E.00911
G1 X126.171 Y101.115 E.01647
G1 X126.271 Y101.682 E.02189
G1 X126.3 Y102.226 E.0207
G1 X126.3 Y132.49 E1.15021
M73 P0 R99
G1 X126.181 Y133.086 E.02311
G1 X126.093 Y133.287 E.00833
G1 X125.945 Y133.514 E.01031
G1 X125.822 Y133.65 E.00697
G1 X125.63 Y133.807 E.00943
G1 X125.215 Y134.016 E.01766
G1 X125.089 Y134.057 E.00504
G1 X124.661 Y134.128 E.0165
G1 X115.223 Y134.116 E.35868
G1 X114.743 Y134.01 E.01869
G1 X114.541 Y133.921 E.00839
G1 X114.314 Y133.773 E.01031
G1 X114.178 Y133.65 E.00697
G1 X114.021 Y133.458 E.00943
G1 X113.812 Y133.043 E.01766
G1 X113.771 Y132.917 E.00504
G1 X113.7 Y132.489 E.0165
G1 X113.702 Y102.188 E1.15161
G1 X113.776 Y101.332 E.03267
G1 X113.902 Y100.905 E.01692
G1 X114.059 Y100.62 E.01236
G1 X114.08 Y100.596 E.00121
G1 X114.432 Y100.885 F21000
G1 F1500
G1 X114.589 Y100.693 E.00939
G1 X114.76 Y100.566 E.00812
G1 X114.99 Y100.46 E.0096
G1 X115.283 Y100.39 E.01146
G1 X124.614 Y100.38 E.35465
G1 X125.015 Y100.461 E.01552
G1 X125.159 Y100.519 E.00592
G1 X125.312 Y100.61 E.00677
G1 X125.477 Y100.766 E.00864
G1 X125.626 Y100.985 E.01005
G1 X125.75 Y101.292 E.01259
G1 X125.821 Y101.757 E.01786
G1 X125.843 Y102.222 E.01771
G1 X125.843 Y132.503 E1.15086
G1 X125.763 Y132.904 E.01552
G1 X125.704 Y133.048 E.00592
G1 X125.613 Y133.2 E.00673
G1 X125.476 Y133.352 E.00778
G1 X125.35 Y133.446 E.00597
G1 X125.012 Y133.607 E.01423
G1 X124.672 Y133.671 E.01316
G1 X115.325 Y133.671 E.35524
G1 X114.924 Y133.591 E.01552
G1 X114.78 Y133.532 E.00592
G1 X114.628 Y133.441 E.00673
G1 X114.476 Y133.304 E.00778
G1 X114.382 Y133.178 E.00598
G1 X114.221 Y132.84 E.01423
G1 X114.157 Y132.5 E.01316
G1 X114.157 Y102.226 E1.15058
G1 X114.214 Y101.461 E.02918
G1 X114.307 Y101.116 E.01355
G1 X114.398 Y100.933 E.00778
G1 X114.793 Y101.159 F21000
G1 F1500
G1 X114.806 Y101.137 E.00099
G1 X114.938 Y100.987 E.00758
G1 X115.193 Y100.87 E.01065
G1 X115.373 Y100.837 E.00695
G1 X124.628 Y100.838 E.35174
G1 X124.916 Y100.907 E.01126
G1 X125.091 Y101.011 E.00773
G1 X125.256 Y101.254 E.01117
G1 X125.321 Y101.446 E.00769
G1 X125.368 Y101.818 E.01426
G1 X125.386 Y102.219 E.01526
G1 X125.386 Y132.517 E1.1515
G1 X125.317 Y132.805 E.01126
G1 X125.214 Y132.977 E.00764
G1 X125.069 Y133.086 E.00688
G1 X124.914 Y133.161 E.00652
G1 X124.685 Y133.214 E.00896
G1 X115.311 Y133.214 E.35624
G1 X115.023 Y133.145 E.01126
G1 X114.851 Y133.042 E.00764
G1 X114.742 Y132.897 E.00688
G1 X114.667 Y132.742 E.00652
G1 X114.614 Y132.513 E.00896
G1 X114.614 Y102.221 E1.15126
G1 X114.67 Y101.488 E.02795
G1 X114.747 Y101.241 E.00984
G1 X114.764 Y101.211 E.00128
G1 X115.16 Y101.438 F21000
G1 F1500
G1 X115.21 Y101.351 E.00381
G1 X115.361 Y101.294 E.00611
G1 X124.639 Y101.295 E.35265
G1 X124.78 Y101.343 E.00567
G1 X124.866 Y101.493 E.00655
G1 X124.911 Y101.834 E.01308
G1 X124.929 Y102.216 E.01454
G1 X124.929 Y132.528 E1.15205
G1 X124.88 Y132.669 E.00567
G1 X124.7 Y132.757 E.00761
G1 X115.3 Y132.757 E.35727
G1 X115.159 Y132.708 E.00567
G1 X115.071 Y132.528 E.00761
G1 X115.071 Y102.216 E1.15205
G1 X115.119 Y101.573 E.02452
G1 X115.134 Y101.491 E.00314
G1 X115.582 Y101.773 F21000
;TYPE:Outer wall
;WIDTH:0.499999
G1 F1500
G1 X124.412 Y101.773 E.33556
G1 X124.45 Y102.246 E.01804
G1 X124.45 Y132.278 E1.1414
G1 X115.55 Y132.278 E.33826
G1 X115.55 Y102.242 E1.14158
G1 X115.578 Y101.833 E.01557
G1 X115.652 Y101.813
G1 E-.4 F2100
G1 X123.284 Y101.909 Z.6 F21000
G1 X123.356 Y101.91 Z.6
G1 Z.2
G1 E.4 F2100
;TYPE:Bottom surface
;WIDTH:0.501584
G1 F2400
G1 X124.107 Y102.661 E.0405
G1 X124.107 Y103.31 E.02474
G1 X122.913 Y102.116 E.06439
G1 X122.265 Y102.116 E.02474
G1 X124.107 Y103.958 E.09938
G1 X124.107 Y104.607 E.02474
G1 X121.616 Y102.116 E.13436
G1 X120.967 Y102.116 E.02474
G1 X124.107 Y105.256 E.16935
G1 X124.107 Y105.904 E.02474
G1 X120.319 Y102.116 E.20433
G1 X119.67 Y102.116 E.02474
G1 X124.107 Y106.553 E.23932
G1 X124.107 Y107.202 E.02474
G1 X119.022 Y102.116 E.2743
G1 X118.373 Y102.116 E.02474
G1 X124.107 Y107.85 E.30929
G1 X124.107 Y108.499 E.02474
G1 X117.724 Y102.116 E.34428
G1 X117.076 Y102.116 E.02474
G1 X124.107 Y109.148 E.37926
G1 X124.107 Y109.796 E.02474
G1 X116.427 Y102.116 E.41425
G1 X115.901 Y102.116 E.02004
G1 X115.893 Y102.231 E.00439
G1 X124.107 Y110.445 E.44303
