; HEADER_BLOCK_START
; generated by OrcaSlicer 1.6.3 on 2023-06-12 at 22:28:05
; total layer number: 0
; HEADER_BLOCK_END

; THUMBNAIL_BLOCK_START
; THUMBNAIL_BLOCK_END

; external perimeters extrusion width = 0.60mm
; perimeters extrusion width = 0.62mm
; infill extrusion width = 0.65mm
; solid infill extrusion width = 0.60mm
; top infill extrusion width = 0.60mm
; first layer extrusion width = 0.70mm

; EXECUTABLE_BLOCK_START
EXCLUDE_OBJECT_DEFINE NAME=pressure_advance_test.stl_id_0_copy_0 CENTER=120,120 POLYGON=[[86.0135,125.014],[86.0362,114.686],[86.0588,114.32],[86.1248,113.969],[86.2688,113.645],[86.4645,113.337],[86.7086,113.133],[86.973,112.978],[87.2705,112.9],[87.5874,112.867],[120.21,112.939],[141.381,112.985],[151.244,113.007],[151.761,113.024],[152.271,113.077],[152.768,113.199],[153.256,113.368],[153.554,113.561],[153.683,113.67],[153.79,113.794],[153.868,113.937],[153.921,114.097],[153.986,114.443],[153.165,122.23],[153.139,122.449],[153.08,122.655],[150.942,126.21],[150.83,126.367],[150.698,126.513],[150.478,126.681],[150.243,126.814],[149.983,126.886],[149.709,126.92],[102.457,127.133],[87.9138,126.868],[87.5253,126.848],[87.1518,126.782],[86.8059,126.634],[86.4789,126.427],[86.2586,126.111],[86.1004,125.773],[86.0324,125.402],[86.0135,125.014]]
M73 P0 R5
;TYPE:Custom
G90
G21
M83 ; use relative distances for extrusion
; filament start gcode
M204 S2000
G1 Z.2 F21000
G1 E-.3 F2100
G1 X65.5 Y215.5 F21000
G1 Z.6 F21000
G1 Z.2 F21000
G1 E.3 F2100
G1 F1200
G1 X65.5 Y16 E11.41359
SET_PRESSURE_ADVANCE ADVANCE=0; Override pressure advance value
M73 P3 R5
G1 E-.3 F2100
G17
G3 Z.6 I1.195 J.228 P1  F21000
G1 X67.5 Y5.5 Z.6 F21000
G1 Z.2 F21000
G1 E.3 F2100
G1 F1200
G1 X87.5 Y5.5 E.92643
G1 F3600
G1 X127.5 Y5.5 E1.85286
G1 F1200
G1 X147.5 Y5.5 E.92643
SET_PRESSURE_ADVANCE ADVANCE=0.002; Override pressure advance value
M73 P4 R5
G1 E-.3 F2100
G17
G3 Z.6 I-.053 J-1.216 P1  F21000
G1 X67.5 Y9 Z.6 F21000
G1 Z.2 F21000
G1 E.3 F2100
G1 F1200
G1 X87.5 Y9 E.92643
G1 F3600
G1 X127.5 Y9 E1.85286
G1 F1200
G1 X147.5 Y9 E.92643
SET_PRESSURE_ADVANCE ADVANCE=0.004; Override pressure advance value
M73 P5 R5
G1 E-.3 F2100
G17
G3 Z.6 I-.053 J-1.216 P1  F21000
G1 X67.5 Y12.5 Z.6 F21000
G1 Z.2 F21000
G1 E.3 F2100
G1 F1200
G1 X87.5 Y12.5 E.92643
G1 F3600
G1 X127.5 Y12.5 E1.85286
M73 P6 R5
G1 F1200
G1 X147.5 Y12.5 E.92643
SET_PRESSURE_ADVANCE ADVANCE=0.006; Override pressure advance value
G1 E-.3 F2100
G17
G3 Z.6 I-.053 J-1.216 P1  F21000
G1 X67.5 Y16 Z.6 F21000
G1 Z.2 F21000
G1 E.3 F2100
G1 F1200
G1 X87.5 Y16 E.92643
G1 F3600
G1 X127.5 Y16 E1.85286
M73 P7 R5
G1 F1200
G1 X147.5 Y16 E.92643
SET_PRESSURE_ADVANCE ADVANCE=0.008; Override pressure advance value
G1 E-.3 F2100
G17
G3 Z.6 I-.053 J-1.216 P1  F21000
G1 X67.5 Y19.5 Z.6 F21000
G1 Z.2 F21000
G1 E.3 F2100
G1 F1200
G1 X87.5 Y19.5 E.92643
G1 F3600
G1 X127.5 Y19.5 E1.85286
M73 P8 R5
G1 F1200
G1 X147.5 Y19.5 E.92643
SET_PRESSURE_ADVANCE ADVANCE=0.01; Override pressure advance value
G1 E-.3 F2100
G17
G3 Z.6 I-.053 J-1.216 P1  F21000
G1 X67.5 Y23 Z.6 F21000
G1 Z.2 F21000
G1 E.3 F2100
G1 F1200
G1 X87.5 Y23 E.92643
G1 F3600
G1 X127.5 Y23 E1.85286
M73 P9 R4
G1 F1200
G1 X147.5 Y23 E.92643
SET_PRESSURE_ADVANCE ADVANCE=0.012; Override pressure advance value
G1 E-.3 F2100
G17
G3 Z.6 I-.053 J-1.216 P1  F21000
G1 X67.5 Y26.5 Z.6 F21000
G1 Z.2 F21000
G1 E.3 F2100
G1 F1200
G1 X87.5 Y26.5 E.92643
G1 F3600
G1 X127.5 Y26.5 E1.85286
M73 P10 R4
G1 F1200
G1 X147.5 Y26.5 E.92643
SET_PRESSURE_ADVANCE ADVANCE=0.014; Override pressure advance value
G1 E-.3 F2100
G17
G3 Z.6 I-.053 J-1.216 P1  F21000
G1 X67.5 Y30 Z.6 F21000
G1 Z.2 F21000
G1 E.3 F2100
G1 F1200
G1 X87.5 Y30 E.92643
G1 F3600
G1 X127.5 Y30 E1.85286
M73 P11 R4
G1 F1200
G1 X147.5 Y30 E.92643
SET_PRESSURE_ADVANCE ADVANCE=0.016; Override pressure advance value
G1 E-.3 F2100
G17
G3 Z.6 I-.053 J-1.216 P1  F21000
G1 X67.5 Y33.5 Z.6 F21000
G1 Z.2 F21000
G1 E.3 F2100
G1 F1200
G1 X87.5 Y33.5 E.92643
G1 F3600
G1 X127.5 Y33.5 E1.85286
M73 P12 R4
G1 F1200
G1 X147.5 Y33.5 E.92643
SET_PRESSURE_ADVANCE ADVANCE=0.018; Override pressure advance value
G1 E-.3 F2100
G17
G3 Z.6 I-.053 J-1.216 P1  F21000
G1 X67.5 Y37 Z.6 F21000
G1 Z.2 F21000
G1 E.3 F2100
G1 F1200
G1 X87.5 Y37 E.92643
G1 F3600
G1 X127.5 Y37 E1.85286
M73 P13 R4
G1 F1200
G1 X147.5 Y37 E.92643
SET_PRESSURE_ADVANCE ADVANCE=0.02; Override pressure advance value
G1 E-.3 F2100
G17
G3 Z.6 I-.053 J-1.216 P1  F21000
G1 X67.5 Y40.5 Z.6 F21000
G1 Z.2 F21000
G1 E.3 F2100
G1 F1200
G1 X87.5 Y40.5 E.92643
G1 F3600
G1 X127.5 Y40.5 E1.85286
M73 P14 R4
G1 F1200
G1 X147.5 Y40.5 E.92643
SET_PRESSURE_ADVANCE ADVANCE=0.022; Override pressure advance value
G1 E-.3 F2100
G17
G3 Z.6 I-.053 J-1.216 P1  F21000
G1 X67.5 Y44 Z.6 F21000
G1 Z.2 F21000
G1 E.3 F2100
G1 F1200
G1 X87.5 Y44 E.92643
G1 F3600
G1 X127.5 Y44 E1.85286
M73 P15 R4
G1 F1200
G1 X147.5 Y44 E.92643
SET_PRESSURE_ADVANCE ADVANCE=0.024; Override pressure advance value
G1 E-.3 F2100
G17
G3 Z.6 I-.053 J-1.216 P1  F21000
G1 X67.5 Y47.5 Z.6 F21000
G1 Z.2 F21000
G1 E.3 F2100
G1 F1200
G1 X87.5 Y47.5 E.92643
M73 P16 R4
G1 F3600
G1 X127.5 Y47.5 E1.85286
G1 F1200
G1 X147.5 Y47.5 E.92643
SET_PRESSURE_ADVANCE ADVANCE=0.026; Override pressure advance value
G1 E-.3 F2100
G17
G3 Z.6 I-.053 J-1.216 P1  F21000
G1 X67.5 Y51 Z.6 F21000
G1 Z.2 F21000
G1 E.3 F2100
G1 F1200
G1 X87.5 Y51 E.92643
M73 P17 R4
G1 F3600
G1 X127.5 Y51 E1.85286
G1 F1200
G1 X147.5 Y51 E.92643
SET_PRESSURE_ADVANCE ADVANCE=0.028; Override pressure advance value
G1 E-.3 F2100
G17
G3 Z.6 I-.053 J-1.216 P1  F21000
G1 X67.5 Y54.5 Z.6 F21000
G1 Z.2 F21000
G1 E.3 F2100
G1 F1200
G1 X87.5 Y54.5 E.92643
M73 P18 R4
G1 F3600
G1 X127.5 Y54.5 E1.85286
G1 F1200
G1 X147.5 Y54.5 E.92643
SET_PRESSURE_ADVANCE ADVANCE=0.03; Override pressure advance value
G1 E-.3 F2100
G17
G3 Z.6 I-.053 J-1.216 P1  F21000
G1 X67.5 Y58 Z.6 F21000
G1 Z.2 F21000
G1 E.3 F2100
G1 F1200
G1 X87.5 Y58 E.92643
M73 P19 R4
G1 F3600
G1 X127.5 Y58 E1.85286
G1 F1200
G1 X147.5 Y58 E.92643
SET_PRESSURE_ADVANCE ADVANCE=0.032; Override pressure advance value
G1 E-.3 F2100
G17
G3 Z.6 I-.053 J-1.216 P1  F21000
G1 X67.5 Y61.5 Z.6 F21000
G1 Z.2 F21000
G1 E.3 F2100
G1 F1200
G1 X87.5 Y61.5 E.92643
M73 P20 R4
G1 F3600
G1 X127.5 Y61.5 E1.85286
G1 F1200
G1 X147.5 Y61.5 E.92643
SET_PRESSURE_ADVANCE ADVANCE=0.034; Override pressure advance value
G1 E-.3 F2100
G17
G3 Z.6 I-.053 J-1.216 P1  F21000
G1 X67.5 Y65 Z.6 F21000
G1 Z.2 F21000
G1 E.3 F2100
G1 F1200
G1 X87.5 Y65 E.92643
M73 P21 R4
G1 F3600
G1 X127.5 Y65 E1.85286
G1 F1200
G1 X147.5 Y65 E.92643
SET_PRESSURE_ADVANCE ADVANCE=0.036; Override pressure advance value
G1 E-.3 F2100
G17
G3 Z.6 I-.053 J-1.216 P1  F21000
G1 X67.5 Y68.5 Z.6 F21000
G1 Z.2 F21000
G1 E.3 F2100
G1 F1200
G1 X87.5 Y68.5 E.92643
M73 P22 R4
G1 F3600
G1 X127.5 Y68.5 E1.85286
G1 F1200
G1 X147.5 Y68.5 E.92643
SET_PRESSURE_ADVANCE ADVANCE=0.038; Override pressure advance value
G1 E-.3 F2100
G17
G3 Z.6 I-.053 J-1.216 P1  F21000
G1 X67.5 Y72 Z.6 F21000
G1 Z.2 F21000
G1 E.3 F2100
G1 F1200
G1 X87.5 Y72 E.92643
M73 P23 R4
G1 F3600
G1 X127.5 Y72 E1.85286
G1 F1200
G1 X147.5 Y72 E.92643
SET_PRESSURE_ADVANCE ADVANCE=0.04; Override pressure advance value
G1 E-.3 F2100
G17
G3 Z.6 I-.053 J-1.216 P1  F21000
G1 X67.5 Y75.5 Z.6 F21000
G1 Z.2 F21000
G1 E.3 F2100
G1 F1200
G1 X87.5 Y75.5 E.92643
M73 P24 R4
G1 F3600
G1 X127.5 Y75.5 E1.85286
G1 F1200
G1 X147.5 Y75.5 E.92643
SET_PRESSURE_ADVANCE ADVANCE=0.042; Override pressure advance value
G1 E-.3 F2100
G17
G3 Z.6 I-.053 J-1.216 P1  F21000
G1 X67.5 Y79 Z.6 F21000
G1 Z.2 F21000
G1 E.3 F2100
G1 F1200
G1 X87.5 Y79 E.92643
M73 P25 R4
G1 F3600
G1 X127.5 Y79 E1.85286
G1 F1200
G1 X147.5 Y79 E.92643
SET_PRESSURE_ADVANCE ADVANCE=0.044; Override pressure advance value
G1 E-.3 F2100
G17
G3 Z.6 I-.053 J-1.216 P1  F21000
G1 X67.5 Y82.5 Z.6 F21000
G1 Z.2 F21000
G1 E.3 F2100
G1 F1200
G1 X87.5 Y82.5 E.92643
M73 P26 R4
G1 F3600
G1 X127.5 Y82.5 E1.85286
G1 F1200
G1 X147.5 Y82.5 E.92643
SET_PRESSURE_ADVANCE ADVANCE=0.046; Override pressure advance value
G1 E-.3 F2100
G17
G3 Z.6 I-.053 J-1.216 P1  F21000
G1 X67.5 Y86 Z.6 F21000
G1 Z.2 F21000
G1 E.3 F2100
G1 F1200
G1 X87.5 Y86 E.92643
M73 P27 R3
G1 F3600
G1 X127.5 Y86 E1.85286
G1 F1200
G1 X147.5 Y86 E.92643
SET_PRESSURE_ADVANCE ADVANCE=0.048; Override pressure advance value
G1 E-.3 F2100
G17
G3 Z.6 I-.053 J-1.216 P1  F21000
G1 X67.5 Y89.5 Z.6 F21000
G1 Z.2 F21000
G1 E.3 F2100
G1 F1200
G1 X87.5 Y89.5 E.92643
M73 P28 R3
G1 F3600
G1 X127.5 Y89.5 E1.85286
G1 F1200
G1 X147.5 Y89.5 E.92643
SET_PRESSURE_ADVANCE ADVANCE=0.05; Override pressure advance value
G1 E-.3 F2100
G17
G3 Z.6 I-.053 J-1.216 P1  F21000
G1 X67.5 Y93 Z.6 F21000
G1 Z.2 F21000
G1 E.3 F2100
G1 F1200
G1 X87.5 Y93 E.92643
M73 P29 R3
G1 F3600
G1 X127.5 Y93 E1.85286
G1 F1200
G1 X147.5 Y93 E.92643
SET_PRESSURE_ADVANCE ADVANCE=0.052; Override pressure advance value
G1 E-.3 F2100
G17
G3 Z.6 I-.053 J-1.216 P1  F21000
G1 X67.5 Y96.5 Z.6 F21000
G1 Z.2 F21000
G1 E.3 F2100
M73 P30 R3
G1 F1200
G1 X87.5 Y96.5 E.92643
G1 F3600
G1 X127.5 Y96.5 E1.85286
G1 F1200
G1 X147.5 Y96.5 E.92643
SET_PRESSURE_ADVANCE ADVANCE=0.054; Override pressure advance value
G1 E-.3 F2100
G17
G3 Z.6 I-.053 J-1.216 P1  F21000
G1 X67.5 Y100 Z.6 F21000
M73 P31 R3
G1 Z.2 F21000
G1 E.3 F2100
G1 F1200
G1 X87.5 Y100 E.92643
G1 F3600
G1 X127.5 Y100 E1.85286
G1 F1200
G1 X147.5 Y100 E.92643
SET_PRESSURE_ADVANCE ADVANCE=0.056; Override pressure advance value
G1 E-.3 F2100
G17
G3 Z.6 I-.053 J-1.216 P1  F21000
G1 X67.5 Y103.5 Z.6 F21000
M73 P32 R3
G1 Z.2 F21000
G1 E.3 F2100
G1 F1200
G1 X87.5 Y103.5 E.92643
G1 F3600
G1 X127.5 Y103.5 E1.85286
G1 F1200
G1 X147.5 Y103.5 E.92643
SET_PRESSURE_ADVANCE ADVANCE=0.058; Override pressure advance value
G1 E-.3 F2100
G17
G3 Z.6 I-.053 J-1.216 P1  F21000
G1 X67.5 Y107 Z.6 F21000
M73 P33 R3
G1 Z.2 F21000
G1 E.3 F2100
G1 F1200
G1 X87.5 Y107 E.92643
G1 F3600
G1 X127.5 Y107 E1.85286
G1 F1200
G1 X147.5 Y107 E.92643
SET_PRESSURE_ADVANCE ADVANCE=0.06; Override pressure advance value
G1 E-.3 F2100
G17
G3 Z.6 I-.053 J-1.216 P1  F21000
G1 X67.5 Y110.5 Z.6 F21000
M73 P34 R3
G1 Z.2 F21000
G1 E.3 F2100
G1 F1200
G1 X87.5 Y110.5 E.92643
G1 F3600
G1 X127.5 Y110.5 E1.85286
G1 F1200
G1 X147.5 Y110.5 E.92643
SET_PRESSURE_ADVANCE ADVANCE=0.062; Override pressure advance value
G1 E-.3 F2100
G17
G3 Z.6 I-.053 J-1.216 P1  F21000
G1 X67.5 Y114 Z.6 F21000
M73 P35 R3
G1 Z.2 F21000
G1 E.3 F2100
G1 F1200
G1 X87.5 Y114 E.92643
G1 F3600
G1 X127.5 Y114 E1.85286
G1 F1200
G1 X147.5 Y114 E.92643
SET_PRESSURE_ADVANCE ADVANCE=0.064; Override pressure advance value
G1 E-.3 F2100
G17
G3 Z.6 I-.053 J-1.216 P1  F21000
G1 X67.5 Y117.5 Z.6 F21000
M73 P36 R3
G1 Z.2 F21000
G1 E.3 F2100
G1 F1200
G1 X87.5 Y117.5 E.92643
G1 F3600
G1 X127.5 Y117.5 E1.85286
G1 F1200
G1 X147.5 Y117.5 E.92643
SET_PRESSURE_ADVANCE ADVANCE=0.066; Override pressure advance value
G1 E-.3 F2100
G17
G3 Z.6 I-.053 J-1.216 P1  F21000
M73 P37 R3
G1 X67.5 Y121 Z.6 F21000
G1 Z.2 F21000
G1 E.3 F2100
G1 F1200
G1 X87.5 Y121 E.92643
G1 F3600
G1 X127.5 Y121 E1.85286
G1 F1200
G1 X147.5 Y121 E.92643
SET_PRESSURE_ADVANCE ADVANCE=0.068; Override pressure advance value
G1 E-.3 F2100
G17
G3 Z.6 I-.053 J-1.216 P1  F21000
M73 P38 R3
G1 X67.5 Y124.5 Z.6 F21000
G1 Z.2 F21000
G1 E.3 F2100
G1 F1200
G1 X87.5 Y124.5 E.92643
G1 F3600
G1 X127.5 Y124.5 E1.85286
G1 F1200
G1 X147.5 Y124.5 E.92643
SET_PRESSURE_ADVANCE ADVANCE=0.07; Override pressure advance value
G1 E-.3 F2100
G17
G3 Z.6 I-.053 J-1.216 P1  F21000
M73 P39 R3
G1 X67.5 Y128 Z.6 F21000
G1 Z.2 F21000
G1 E.3 F2100
G1 F1200
G1 X87.5 Y128 E.92643
G1 F3600
G1 X127.5 Y128 E1.85286
G1 F1200
G1 X147.5 Y128 E.92643
SET_PRESSURE_ADVANCE ADVANCE=0.072; Override pressure advance value
M73 P40 R3
G1 E-.3 F2100
G17
G3 Z.6 I-.053 J-1.216 P1  F21000
G1 X67.5 Y131.5 Z.6 F21000
G1 Z.2 F21000
G1 E.3 F2100
G1 F1200
G1 X87.5 Y131.5 E.92643
G1 F3600
G1 X127.5 Y131.5 E1.85286
G1 F1200
G1 X147.5 Y131.5 E.92643
SET_PRESSURE_ADVANCE ADVANCE=0.074; Override pressure advance value
M73 P41 R3
G1 E-.3 F2100
G17
G3 Z.6 I-.053 J-1.216 P1  F21000
G1 X67.5 Y135 Z.6 F21000
G1 Z.2 F21000
G1 E.3 F2100
G1 F1200
G1 X87.5 Y135 E.92643
G1 F3600
G1 X127.5 Y135 E1.85286
G1 F1200
G1 X147.5 Y135 E.92643
SET_PRESSURE_ADVANCE ADVANCE=0.076; Override pressure advance value
M73 P42 R3
G1 E-.3 F2100
G17
G3 Z.6 I-.053 J-1.216 P1  F21000
G1 X67.5 Y138.5 Z.6 F21000
G1 Z.2 F21000
G1 E.3 F2100
G1 F1200
G1 X87.5 Y138.5 E.92643
G1 F3600
G1 X127.5 Y138.5 E1.85286
G1 F1200
G1 X147.5 Y138.5 E.92643
SET_PRESSURE_ADVANCE ADVANCE=0.078; Override pressure advance value
M73 P43 R3
G1 E-.3 F2100
G17
G3 Z.6 I-.053 J-1.216 P1  F21000
G1 X67.5 Y142 Z.6 F21000
G1 Z.2 F21000
G1 E.3 F2100
G1 F1200
G1 X87.5 Y142 E.92643
G1 F3600
G1 X127.5 Y142 E1.85286
G1 F1200
G1 X147.5 Y142 E.92643
SET_PRESSURE_ADVANCE ADVANCE=0.08; Override pressure advance value
M73 P44 R3
G1 E-.3 F2100
G17
G3 Z.6 I-.053 J-1.216 P1  F21000
G1 X67.5 Y145.5 Z.6 F21000
G1 Z.2 F21000
G1 E.3 F2100
G1 F1200
G1 X87.5 Y145.5 E.92643
G1 F3600
G1 X127.5 Y145.5 E1.85286
G1 F1200
G1 X147.5 Y145.5 E.92643
SET_PRESSURE_ADVANCE ADVANCE=0.082; Override pressure advance value
M73 P45 R3
G1 E-.3 F2100
G17
G3 Z.6 I-.053 J-1.216 P1  F21000
G1 X67.5 Y149 Z.6 F21000
G1 Z.2 F21000
G1 E.3 F2100
G1 F1200
G1 X87.5 Y149 E.92643
M73 P45 R2
G1 F3600
G1 X127.5 Y149 E1.85286
G1 F1200
G1 X147.5 Y149 E.92643
SET_PRESSURE_ADVANCE ADVANCE=0.084; Override pressure advance value
M73 P46 R2
G1 E-.3 F2100
G17
G3 Z.6 I-.053 J-1.216 P1  F21000
G1 X67.5 Y152.5 Z.6 F21000
G1 Z.2 F21000
G1 E.3 F2100
G1 F1200
G1 X87.5 Y152.5 E.92643
G1 F3600
G1 X127.5 Y152.5 E1.85286
G1 F1200
G1 X147.5 Y152.5 E.92643
SET_PRESSURE_ADVANCE ADVANCE=0.086; Override pressure advance value
M73 P47 R2
G1 E-.3 F2100
G17
G3 Z.6 I-.053 J-1.216 P1  F21000
G1 X67.5 Y156 Z.6 F21000
G1 Z.2 F21000
G1 E.3 F2100
G1 F1200
G1 X87.5 Y156 E.92643
G1 F3600
G1 X127.5 Y156 E1.85286
G1 F1200
G1 X147.5 Y156 E.92643
SET_PRESSURE_ADVANCE ADVANCE=0.088; Override pressure advance value
M73 P48 R2
G1 E-.3 F2100
G17
G3 Z.6 I-.053 J-1.216 P1  F21000
G1 X67.5 Y159.5 Z.6 F21000
G1 Z.2 F21000
G1 E.3 F2100
G1 F1200
G1 X87.5 Y159.5 E.92643
G1 F3600
G1 X127.5 Y159.5 E1.85286
G1 F1200
G1 X147.5 Y159.5 E.92643
SET_PRESSURE_ADVANCE ADVANCE=0.09; Override pressure advance value
M73 P49 R2
G1 E-.3 F2100
G17
G3 Z.6 I-.053 J-1.216 P1  F21000
G1 X67.5 Y163 Z.6 F21000
G1 Z.2 F21000
G1 E.3 F2100
G1 F1200
G1 X87.5 Y163 E.92643
G1 F3600
G1 X127.5 Y163 E1.85286
G1 F1200
G1 X147.5 Y163 E.92643
SET_PRESSURE_ADVANCE ADVANCE=0.092; Override pressure advance value
M73 P50 R2
G1 E-.3 F2100
G17
G3 Z.6 I-.053 J-1.216 P1  F21000
G1 X67.5 Y166.5 Z.6 F21000
G1 Z.2 F21000
G1 E.3 F2100
G1 F1200
G1 X87.5 Y166.5 E.92643
G1 F3600
G1 X127.5 Y166.5 E1.85286
G1 F1200
G1 X147.5 Y166.5 E.92643
SET_PRESSURE_ADVANCE ADVANCE=0.094; Override pressure advance value
M73 P51 R2
G1 E-.3 F2100
G17
G3 Z.6 I-.053 J-1.216 P1  F21000
G1 X67.5 Y170 Z.6 F21000
G1 Z.2 F21000
G1 E.3 F2100
G1 F1200
G1 X87.5 Y170 E.92643
G1 F3600
G1 X127.5 Y170 E1.85286
G1 F1200
G1 X147.5 Y170 E.92643
SET_PRESSURE_ADVANCE ADVANCE=0.096; Override pressure advance value
M73 P52 R2
G1 E-.3 F2100
G17
G3 Z.6 I-.053 J-1.216 P1  F21000
G1 X67.5 Y173.5 Z.6 F21000
G1 Z.2 F21000
G1 E.3 F2100
G1 F1200
G1 X87.5 Y173.5 E.92643
G1 F3600
G1 X127.5 Y173.5 E1.85286
G1 F1200
G1 X147.5 Y173.5 E.92643
SET_PRESSURE_ADVANCE ADVANCE=0.098; Override pressure advance value
M73 P53 R2
G1 E-.3 F2100
G17
G3 Z.6 I-.053 J-1.216 P1  F21000
G1 X67.5 Y177 Z.6 F21000
G1 Z.2 F21000
G1 E.3 F2100
G1 F1200
G1 X87.5 Y177 E.92643
G1 F3600
G1 X127.5 Y177 E1.85286
G1 F1200
G1 X147.5 Y177 E.92643
SET_PRESSURE_ADVANCE ADVANCE=0.1; Override pressure advance value
M73 P54 R2
G1 E-.3 F2100
G17
G3 Z.6 I-.053 J-1.216 P1  F21000
G1 X67.5 Y180.5 Z.6 F21000
G1 Z.2 F21000
G1 E.3 F2100
G1 F1200
G1 X87.5 Y180.5 E.92643
G1 F3600
G1 X127.5 Y180.5 E1.85286
M73 P55 R2
G1 F1200
G1 X147.5 Y180.5 E.92643
SET_PRESSURE_ADVANCE ADVANCE=0.102; Override pressure advance value
G1 E-.3 F2100
G17
G3 Z.6 I-.053 J-1.216 P1  F21000
G1 X67.5 Y184 Z.6 F21000
G1 Z.2 F21000
G1 E.3 F2100
G1 F1200
G1 X87.5 Y184 E.92643
