; HEADER_BLOCK_START
; generated by OrcaSlicer 1.6.3 on 2023-06-12 at 22:16:26
; total layer number: 82
; HEADER_BLOCK_END

; THUMBNAIL_BLOCK_START
; THUMBNAIL_BLOCK_END

; external perimeters extrusion width = 0.40mm
; perimeters extrusion width = 0.45mm
; infill extrusion width = 0.45mm
; solid infill extrusion width = 0.40mm
; top infill extrusion width = 0.40mm
; first layer extrusion width = 0.50mm

; EXECUTABLE_BLOCK_START
EXCLUDE_OBJECT_DEFINE NAME=retraction_tower.stl_id_0_copy_0 CENTER=120,120 POLYGON=[[100,115.5],[100.102,114.724],[100.402,114],[100.879,113.379],[101.5,112.902],[102.224,112.602],[103,112.5],[137,112.5],[137.776,112.602],[138.5,112.902],[139.121,113.379],[139.598,114],[139.898,114.724],[140,115.5],[140,124.5],[139.898,125.276],[139.598,126],[139.121,126.621],[138.5,127.098],[137.776,127.398],[137,127.5],[103,127.5],[102.224,127.398],[101.5,127.098],[100.879,126.621],[100.402,126],[100.102,125.276],[100,124.5],[100,115.5]]
M73 P0 R10
;TYPE:Custom
G90
G21
M83 ; use relative distances for extrusion
; filament start gcode
M106 S0
;LAYER_CHANGE
;Z:0.2
;HEIGHT:0.2
;BEFORE_LAYER_CHANGE
;0.2
G92 E0

; Calib_Retraction_tower: Z_HEIGHT: 0.2, length:0
;AFTER_LAYER_CHANGE
;0.2
M204 S500
; printing object retraction_tower.stl id:0 copy 0
EXCLUDE_OBJECT_START NAME=retraction_tower.stl_id_0_copy_0
G1 X100.346 Y114.789 F21000
G1 Z.2
G1 E0 F2100
;TYPE:Outer wall
;WIDTH:0.499999
G1 X100.62 Y114.126 E.02726
G1 X101.057 Y113.557 E.02726
G1 X101.626 Y113.12 E.02726
G1 X102.289 Y112.846 E.02726
G1 X103.016 Y112.75 E.02789
G1 X136.984 Y112.75 E1.29097
G1 X137.711 Y112.846 E.02789
G1 X138.374 Y113.12 E.02726
G1 X138.943 Y113.557 E.02726
G1 X139.38 Y114.126 E.02726
G1 X139.654 Y114.789 E.02726
G3 X139.75 Y115.71 I-10.28 J1.534 E.03523
G1 X139.75 Y124.484 E.33344
G1 X139.654 Y125.211 E.02789
G1 X139.38 Y125.874 E.02726
G1 X138.943 Y126.443 E.02726
G1 X138.374 Y126.88 E.02726
G1 X137.711 Y127.154 E.02726
G1 X136.984 Y127.25 E.02789
G1 X103.016 Y127.25 E1.29097
G1 X102.289 Y127.154 E.02789
G1 X101.626 Y126.88 E.02726
G1 X101.057 Y126.443 E.02726
G1 X100.62 Y125.874 E.02726
G1 X100.346 Y125.211 E.02726
G1 X100.25 Y124.484 E.02789
G1 X100.25 Y115.516 E.34081
G1 X100.338 Y114.848 E.02561
G1 X100.423 Y114.768
G1 X137.165 Y112.912 F21000
;TYPE:Bottom surface
;WIDTH:0.500237
G1 F3000
G1 X139.349 Y115.096 E.11744
G3 X139.407 Y115.801 I-2.649 J.574 E.02698
G1 X136.699 Y113.093 E.14564
G1 X136.052 Y113.093 E.02459
G1 X139.407 Y116.448 E.18042
G1 X139.407 Y117.095 E.02459
G1 X135.405 Y113.093 E.2152
G1 X134.759 Y113.093 E.02459
G1 X139.407 Y117.741 E.24998
G1 X139.407 Y118.388 E.02459
G1 X134.112 Y113.093 E.28476
G1 X133.465 Y113.093 E.02459
G1 X139.407 Y119.035 E.31954
G1 X139.407 Y119.682 E.02459
G1 X132.818 Y113.093 E.35432
M73 P1 R10
G1 X132.172 Y113.093 E.02459
G1 X139.407 Y120.328 E.3891
G1 X139.407 Y120.975 E.02459
G1 X131.525 Y113.093 E.42388
G1 X130.878 Y113.093 E.02459
G1 X139.407 Y121.622 E.45866
G1 X139.407 Y122.269 E.02459
G1 X130.231 Y113.093 E.49344
G1 X129.585 Y113.093 E.02459
G1 X139.407 Y122.915 E.52822
G1 X139.407 Y123.562 E.02459
G1 X128.938 Y113.093 E.563
G1 X128.291 Y113.093 E.02459
G1 X139.407 Y124.209 E.59778
G3 X139.361 Y124.81 I-2.305 J.126 E.02298
G1 X127.645 Y113.093 E.6301
G1 X126.998 Y113.093 E.02459
G1 X139.234 Y125.329 E.65804
G1 X139.08 Y125.701 E.0153
G1 X139.028 Y125.77 E.00328
G1 X126.351 Y113.093 E.68172
G1 X125.704 Y113.093 E.02459
G1 X138.747 Y126.135 E.70139
G1 X138.699 Y126.199 E.00302
G1 X138.396 Y126.431 E.01452
G1 X125.058 Y113.093 E.71728
G1 X124.411 Y113.093 E.02459
G1 X137.987 Y126.669 E.73008
G1 X137.622 Y126.82 E.01503
G1 X137.507 Y126.835 E.00441
G1 X123.764 Y113.093 E.73903
G1 X123.117 Y113.093 E.02459
G1 X136.932 Y126.907 E.7429
G1 X136.285 Y126.907 E.02459
G1 X122.471 Y113.093 E.7429
M73 P2 R10
G1 X121.824 Y113.093 E.02459
G1 X135.638 Y126.907 E.7429
G1 X134.991 Y126.907 E.02459
G1 X121.177 Y113.093 E.7429
G1 X120.53 Y113.093 E.02459
G1 X134.345 Y126.907 E.7429
G1 X133.698 Y126.907 E.02459
G1 X119.884 Y113.093 E.7429
G1 X119.237 Y113.093 E.02459
G1 X133.051 Y126.907 E.7429
G1 X132.404 Y126.907 E.02459
G1 X118.59 Y113.093 E.7429
G1 X117.943 Y113.093 E.02459
G1 X131.758 Y126.907 E.7429
G1 X131.111 Y126.907 E.02459
G1 X117.297 Y113.093 E.7429
G1 X116.65 Y113.093 E.02459
G1 X130.464 Y126.907 E.7429
G1 X129.818 Y126.907 E.02459
G1 X116.003 Y113.093 E.7429
G1 X115.356 Y113.093 E.02459
G1 X129.171 Y126.907 E.7429
G1 X128.524 Y126.907 E.02459
G1 X114.71 Y113.093 E.7429
G1 X114.063 Y113.093 E.02459
M73 P3 R10
G1 X127.877 Y126.907 E.7429
G1 X127.231 Y126.907 E.02459
G1 X113.416 Y113.093 E.7429
G1 X112.769 Y113.093 E.02459
G1 X126.584 Y126.907 E.7429
G1 X125.937 Y126.907 E.02459
G1 X112.123 Y113.093 E.7429
G1 X111.476 Y113.093 E.02459
G1 X125.29 Y126.907 E.7429
G1 X124.644 Y126.907 E.02459
G1 X110.829 Y113.093 E.7429
G1 X110.182 Y113.093 E.02459
G1 X123.997 Y126.907 E.7429
G1 X123.35 Y126.907 E.02459
G1 X109.536 Y113.093 E.7429
G1 X108.889 Y113.093 E.02459
G1 X122.703 Y126.907 E.7429
G1 X122.057 Y126.907 E.02459
G1 X108.242 Y113.093 E.7429
G1 X107.595 Y113.093 E.02459
G1 X121.41 Y126.907 E.7429
G1 X120.763 Y126.907 E.02459
G1 X106.949 Y113.093 E.7429
G1 X106.302 Y113.093 E.02459
G1 X120.116 Y126.907 E.7429
M73 P4 R10
G1 X119.47 Y126.907 E.02459
G1 X105.655 Y113.093 E.7429
G1 X105.008 Y113.093 E.02459
G1 X118.823 Y126.907 E.7429
G1 X118.176 Y126.907 E.02459
G1 X104.362 Y113.093 E.7429
G1 X103.715 Y113.093 E.02459
G1 X117.529 Y126.907 E.7429
G1 X116.883 Y126.907 E.02459
G1 X103.068 Y113.093 E.7429
G1 X102.493 Y113.165 E.02203
G1 X116.236 Y126.907 E.73903
G1 X115.589 Y126.907 E.02459
G1 X102.013 Y113.331 E.73008
G2 X101.604 Y113.569 I.24 J.882 E.01819
G1 X114.942 Y126.907 E.71728
G1 X114.296 Y126.907 E.02459
G1 X101.253 Y113.865 E.70139
G1 X100.972 Y114.231 E.01754
G1 X113.649 Y126.907 E.68171
G1 X113.002 Y126.907 E.02459
G1 X100.766 Y114.671 E.65804
G1 X100.68 Y114.878 E.00854
G1 X100.639 Y115.19 E.01197
G1 X112.355 Y126.907 E.63009
G1 X111.709 Y126.907 E.02459
G1 X100.593 Y115.791 E.59778
G1 X100.593 Y116.438 E.02459
G1 X111.062 Y126.907 E.563
M73 P5 R10
G1 X110.415 Y126.907 E.02459
G1 X100.593 Y117.085 E.52822
G1 X100.593 Y117.732 E.02459
G1 X109.768 Y126.907 E.49344
G1 X109.122 Y126.907 E.02459
G1 X100.593 Y118.378 E.45866
G1 X100.593 Y119.025 E.02459
G1 X108.475 Y126.907 E.42388
G1 X107.828 Y126.907 E.02459
G1 X100.593 Y119.672 E.3891
G1 X100.593 Y120.319 E.02459
G1 X107.181 Y126.907 E.35432
G1 X106.535 Y126.907 E.02459
G1 X100.593 Y120.965 E.31954
G1 X100.593 Y121.612 E.02459
G1 X105.888 Y126.907 E.28476
G1 X105.241 Y126.907 E.02459
G1 X100.593 Y122.259 E.24998
G1 X100.593 Y122.905 E.02459
G1 X104.595 Y126.907 E.2152
G1 X103.948 Y126.907 E.02459
G1 X100.593 Y123.552 E.18042
G1 X100.593 Y124.199 E.02459
G1 X103.301 Y126.907 E.14564
G3 X102.596 Y126.849 I-.131 J-2.707 E.02698
G1 X100.412 Y124.665 E.11744
; stop printing object retraction_tower.stl id:0 copy 0
EXCLUDE_OBJECT_END NAME=retraction_tower.stl_id_0_copy_0
;LAYER_CHANGE
;Z:0.4
;HEIGHT:0.2
;BEFORE_LAYER_CHANGE
;0.4
G92 E0

; Calib_Retraction_tower: Z_HEIGHT: 0.4, length:0
;WIPE_START
G1 F3000
G1 X101.826 Y126.079
;WIPE_END
;AFTER_LAYER_CHANGE
;0.4
M204 S2500
M140 S60 ; set bed temperature
; printing object retraction_tower.stl id:0 copy 0
EXCLUDE_OBJECT_START NAME=retraction_tower.stl_id_0_copy_0
M204 S7500
G1 X100.669 Y114.876 Z.4 F21000
M204 S3000
;TYPE:Inner wall
;WIDTH:0.449999
G1 F4800
G1 X100.91 Y114.294 E.02132
G1 X101.294 Y113.794 E.02132
G1 X101.794 Y113.41 E.02132
G1 X102.376 Y113.169 E.02132
G1 X103.038 Y113.082 E.02262
G1 X136.962 Y113.082 E1.14827
G1 X137.625 Y113.169 E.02262
G1 X138.206 Y113.41 E.02132
G1 X138.706 Y113.794 E.02132
G1 X139.09 Y114.294 E.02132
G1 X139.331 Y114.876 E.02132
G3 X139.418 Y115.71 I-9.691 J1.435 E.02842
G1 X139.418 Y124.462 E.29622
G1 X139.331 Y125.125 E.02262
G1 X139.09 Y125.706 E.02132
G1 X138.706 Y126.206 E.02132
G1 X138.206 Y126.59 E.02132
G1 X137.624 Y126.831 E.02132
G1 X136.962 Y126.918 E.02262
G1 X103.038 Y126.918 E1.14827
G1 X102.376 Y126.831 E.02262
G1 X101.794 Y126.59 E.02132
M73 P5 R9
G1 X101.294 Y126.206 E.02132
G1 X100.91 Y125.706 E.02132
G1 X100.669 Y125.125 E.02132
G1 X100.582 Y124.462 E.02262
G1 X100.582 Y115.538 E.30206
G1 X100.661 Y114.935 E.02059
M204 S2500
M204 S7500
G1 X100.297 Y114.776 F21000
M204 S2000
;TYPE:Outer wall
;WIDTH:0.399999
G1 F3600
G1 X100.577 Y114.101 E.02169
G1 X101.021 Y113.521 E.02169
G1 X101.601 Y113.077 E.02169
G1 X102.276 Y112.797 E.02169
G1 X103.013 Y112.7 E.02208
G1 X136.987 Y112.7 E1.00872
G1 X137.724 Y112.797 E.02208
G1 X138.399 Y113.077 E.02169
G1 X138.979 Y113.521 E.02169
G1 X139.423 Y114.101 E.02169
G1 X139.703 Y114.776 E.02169
G3 X139.8 Y115.71 I-10.37 J1.549 E.02791
G1 X139.8 Y124.487 E.26058
G1 X139.703 Y125.224 E.02208
G1 X139.423 Y125.899 E.02169
G1 X138.979 Y126.479 E.02169
G1 X138.399 Y126.923 E.02169
G1 X137.724 Y127.203 E.02169
G1 X136.987 Y127.3 E.02208
G1 X103.013 Y127.3 E1.00872
M73 P6 R9
G1 X102.276 Y127.203 E.02208
G1 X101.601 Y126.923 E.02169
G1 X101.021 Y126.479 E.02169
G1 X100.577 Y125.899 E.02169
G1 X100.297 Y125.224 E.02169
G1 X100.2 Y124.487 E.02208
G1 X100.2 Y115.513 E.26644
G1 X100.289 Y114.835 E.0203
G1 X100.374 Y114.755
M204 S2500
M204 S7500
G1 X137.25 Y126.759 F21000
M204 S2500
;TYPE:Internal solid infill
;WIDTH:0.400329
G1 F4800
G1 X139.073 Y124.936 E.07663
G1 X139.138 Y124.366 E.01706
G1 X136.866 Y126.638 E.09548
G1 X136.36 Y126.638 E.01502
G1 X139.138 Y123.86 E.11672
G1 X139.138 Y123.355 E.01502
G1 X135.855 Y126.638 E.13796
G1 X135.35 Y126.638 E.01502
G1 X139.138 Y122.85 E.15921
G1 X139.138 Y122.344 E.01502
G1 X134.844 Y126.638 E.18045
G1 X134.339 Y126.638 E.01502
G1 X139.138 Y121.839 E.2017
G1 X139.138 Y121.333 E.01502
G1 X133.833 Y126.638 E.22294
G1 X133.328 Y126.638 E.01502
G1 X139.138 Y120.828 E.24418
G1 X139.138 Y120.322 E.01502
G1 X132.822 Y126.638 E.26543
G1 X132.317 Y126.638 E.01502
G1 X139.138 Y119.817 E.28667
G1 X139.138 Y119.311 E.01502
G1 X131.811 Y126.638 E.30791
G1 X131.306 Y126.638 E.01502
G1 X139.138 Y118.806 E.32916
G1 X139.138 Y118.3 E.01502
G1 X130.8 Y126.638 E.3504
G1 X130.295 Y126.638 E.01502
G1 X139.138 Y117.795 E.37164
G1 X139.138 Y117.29 E.01502
G1 X129.79 Y126.638 E.39289
G1 X129.284 Y126.638 E.01502
G1 X139.138 Y116.784 E.41413
G1 X139.138 Y116.279 E.01502
G1 X128.779 Y126.638 E.43537
G1 X128.273 Y126.638 E.01502
G1 X139.138 Y115.773 E.45662
G2 X139.104 Y115.301 I-1.809 J-.108 E.0141
G1 X127.768 Y126.638 E.47645
G1 X127.262 Y126.638 E.01502
G1 X139.026 Y114.873 E.49443
G1 X138.878 Y114.516 E.0115
G1 X126.757 Y126.638 E.50945
G1 X126.251 Y126.638 E.01502
G1 X138.675 Y114.214 E.52215
G1 X138.506 Y113.994 E.00824
G1 X138.44 Y113.943 E.00247
G1 X125.746 Y126.638 E.53353
G1 X125.24 Y126.638 E.01502
G1 X138.154 Y113.724 E.54275
G1 X138.065 Y113.655 E.00334
G1 X137.819 Y113.553 E.00791
G1 X124.735 Y126.638 E.54991
G1 X124.23 Y126.638 E.01502
G1 X137.439 Y113.428 E.55519
G1 X136.993 Y113.369 E.01339
G1 X123.724 Y126.638 E.55767
G1 X123.219 Y126.638 E.01502
G1 X136.494 Y113.362 E.55794
M73 P7 R9
G1 X135.988 Y113.362 E.01502
G1 X122.713 Y126.638 E.55794
G1 X122.208 Y126.638 E.01502
G1 X135.483 Y113.362 E.55794
G1 X134.978 Y113.362 E.01502
G1 X121.702 Y126.638 E.55794
G1 X121.197 Y126.638 E.01502
G1 X134.472 Y113.362 E.55794
G1 X133.967 Y113.362 E.01502
G1 X120.691 Y126.638 E.55794
G1 X120.186 Y126.638 E.01502
G1 X133.461 Y113.362 E.55794
G1 X132.956 Y113.362 E.01502
G1 X119.68 Y126.638 E.55794
G1 X119.175 Y126.638 E.01502
G1 X132.45 Y113.362 E.55794
G1 X131.945 Y113.362 E.01502
G1 X118.67 Y126.638 E.55794
G1 X118.164 Y126.638 E.01502
G1 X131.439 Y113.362 E.55794
G1 X130.934 Y113.362 E.01502
G1 X117.659 Y126.638 E.55794
G1 X117.153 Y126.638 E.01502
G1 X130.428 Y113.362 E.55794
G1 X129.923 Y113.362 E.01502
G1 X116.648 Y126.638 E.55794
G1 X116.142 Y126.638 E.01502
G1 X129.418 Y113.362 E.55794
G1 X128.912 Y113.362 E.01502
G1 X115.637 Y126.638 E.55794
G1 X115.131 Y126.638 E.01502
G1 X128.407 Y113.362 E.55794
G1 X127.901 Y113.362 E.01502
G1 X114.626 Y126.638 E.55794
G1 X114.12 Y126.638 E.01502
G1 X127.396 Y113.362 E.55794
G1 X126.89 Y113.362 E.01502
G1 X113.615 Y126.638 E.55794
G1 X113.11 Y126.638 E.01502
G1 X126.385 Y113.362 E.55794
G1 X125.879 Y113.362 E.01502
G1 X112.604 Y126.638 E.55794
G1 X112.099 Y126.638 E.01502
G1 X125.374 Y113.362 E.55794
G1 X124.868 Y113.362 E.01502
M73 P8 R9
G1 X111.593 Y126.638 E.55794
G1 X111.088 Y126.638 E.01502
G1 X124.363 Y113.362 E.55794
G1 X123.858 Y113.362 E.01502
G1 X110.582 Y126.638 E.55794
G1 X110.077 Y126.638 E.01502
G1 X123.352 Y113.362 E.55794
G1 X122.847 Y113.362 E.01502
G1 X109.571 Y126.638 E.55794
G1 X109.066 Y126.638 E.01502
G1 X122.341 Y113.362 E.55794
G1 X121.836 Y113.362 E.01502
G1 X108.561 Y126.638 E.55794
G1 X108.055 Y126.638 E.01502
G1 X121.33 Y113.362 E.55794
G1 X120.825 Y113.362 E.01502
G1 X107.55 Y126.638 E.55794
G1 X107.044 Y126.638 E.01502
G1 X120.319 Y113.362 E.55794
G1 X119.814 Y113.362 E.01502
G1 X106.539 Y126.638 E.55794
G1 X106.033 Y126.638 E.01502
G1 X119.308 Y113.362 E.55794
G1 X118.803 Y113.362 E.01502
G1 X105.528 Y126.638 E.55794
G1 X105.022 Y126.638 E.01502
G1 X118.298 Y113.362 E.55794
G1 X117.792 Y113.362 E.01502
G1 X104.517 Y126.638 E.55794
G1 X104.011 Y126.638 E.01502
G1 X117.287 Y113.362 E.55794
G1 X116.781 Y113.362 E.01502
G1 X103.506 Y126.638 E.55794
G1 X103.057 Y126.638 E.01336
G1 X103.007 Y126.631 E.00148
G1 X116.276 Y113.362 E.55766
G1 X115.77 Y113.362 E.01502
G1 X102.56 Y126.572 E.55519
G1 X102.449 Y126.558 E.00335
G1 X102.181 Y126.447 E.00862
G1 X115.265 Y113.362 E.54991
G1 X114.759 Y113.362 E.01502
G1 X101.846 Y126.276 E.54275
G1 X101.56 Y126.057 E.01071
G1 X114.254 Y113.362 E.53353
G1 X113.749 Y113.362 E.01502
G1 X101.325 Y125.786 E.52215
M73 P9 R9
G1 X101.155 Y125.565 E.00828
G1 X101.122 Y125.484 E.00261
G1 X113.243 Y113.362 E.50945
G1 X112.738 Y113.362 E.01502
G1 X100.974 Y125.126 E.49443
G1 X100.942 Y125.051 E.00242
G1 X100.896 Y124.699 E.01057
G1 X112.232 Y113.362 E.47644
G1 X111.727 Y113.362 E.01502
G1 X100.862 Y124.227 E.45661
G1 X100.862 Y123.721 E.01502
G1 X111.221 Y113.362 E.43537
G1 X110.716 Y113.362 E.01502
G1 X100.862 Y123.216 E.41412
G1 X100.862 Y122.71 E.01502
G1 X110.21 Y113.362 E.39288
G1 X109.705 Y113.362 E.01502
G1 X100.862 Y122.205 E.37164
G1 X100.862 Y121.699 E.01502
G1 X109.199 Y113.362 E.35039
G1 X108.694 Y113.362 E.01502
G1 X100.862 Y121.194 E.32915
G1 X100.862 Y120.689 E.01502
G1 X108.189 Y113.362 E.30791
G1 X107.683 Y113.362 E.01502
G1 X100.862 Y120.183 E.28666
G1 X100.862 Y119.678 E.01502
G1 X107.178 Y113.362 E.26542
G1 X106.672 Y113.362 E.01502
G1 X100.862 Y119.172 E.24418
G1 X100.862 Y118.667 E.01502
G1 X106.167 Y113.362 E.22293
G1 X105.661 Y113.362 E.01502
G1 X100.862 Y118.161 E.20169
G1 X100.862 Y117.656 E.01502
G1 X105.156 Y113.362 E.18045
G1 X104.65 Y113.362 E.01502
G1 X100.862 Y117.15 E.1592
G1 X100.862 Y116.645 E.01502
G1 X104.145 Y113.362 E.13796
G1 X103.639 Y113.362 E.01502
G1 X100.862 Y116.139 E.11672
G1 X100.862 Y115.634 E.01502
G1 X103.134 Y113.362 E.09547
G1 X102.564 Y113.427 E.01706
G1 X100.741 Y115.25 E.07662
; stop printing object retraction_tower.stl id:0 copy 0
EXCLUDE_OBJECT_END NAME=retraction_tower.stl_id_0_copy_0
M106 S127
;LAYER_CHANGE
;Z:0.6
;HEIGHT:0.2
;BEFORE_LAYER_CHANGE
;0.6
G92 E0

; Calib_Retraction_tower: Z_HEIGHT: 0.6, length:0
;WIPE_START
G1 F4800
G1 X102.155 Y113.836
;WIPE_END
;AFTER_LAYER_CHANGE
;0.6
; printing object retraction_tower.stl id:0 copy 0
EXCLUDE_OBJECT_START NAME=retraction_tower.stl_id_0_copy_0
M204 S7500
G1 X133.324 Y119.959 Z.6 F21000
M204 S3000
;TYPE:Inner wall
;WIDTH:0.449999
G1 F1155
G3 X133.552 Y119.144 I8.903 J2.045 E.02863
G1 X133.795 Y118.674 E.01793
G3 X138.194 Y119.787 I2.001 J1.342 E.20029
G1 X138.214 Y120.016 E.00779
G1 X138.164 Y120.494 E.01627
G1 X138.019 Y120.95 E.01619
G3 X137.534 Y121.68 I-3.345 J-1.695 E.02974
G1 X137.166 Y121.992 E.01633
G1 X136.746 Y122.22 E.01618
G3 X135.89 Y122.413 I-1.256 J-3.578 E.02977
G1 X135.41 Y122.383 E.0163
G1 X134.949 Y122.258 E.01617
G3 X134.196 Y121.805 I1.587 J-3.491 E.0298
